!!!!SEGMENT: pl-cz--iii-114--010_dankowski-adalbert--vesperae-d-et-misericordia.krn
!!!cenid: 18xx:815
!!!COM: Dankowski, Adalbert
!!!COM-rismid: pe30000793
!!!CDT: ~1760-~1836
!!!CNT: Polish
!!!OPR: Vesperae D
!!!OTL: Et misericordia
!!!OMV: 010
!!!PDT:
!!!AGN: Sacred; Vespers
!!!SMS-siglum: PL-CZ
!!!SMS-shelfmark: III-114
!!!SMS-shelfwork: 001-010 M
!!!SMS-variant:
!!!SMS-altvar:
!!!NIFC-rismid: 300000113
!!!URL-scan: http://repozytorium.nifc.pl/skany/pl-cz-nut--iii-114
!!!ONB-nifc: UWAGA: części Vesperae: Dixit Dominus, Juravit Dominus, Judicabit, Gloria, Laudate pueri, Laetatus sum, Nisi Dominus, Lauda Jerusalem, Magnificat, Et misericordia, Gloria. Uwaga: brak partii vl 1, fl 1 i 2
!!!OMD: Andante
!!!key: G
**kern	**fba	**dynam	**kern	**dynam	**kern	**kern	**kern	**kern	**text	**kern	**kern	**kern	**kern	**kern
*part11	*part11	*part11	*part10	*part10	*part9	*part8	*part7	*part6	*part6	*part5	*part4	*part3	*part2	*part1
*staff11	*staff11	*	*staff10	*	*staff9	*staff8	*staff7	*staff6	*staff6	*staff5	*staff4	*staff3	*staff2	*staff1
*I"Organo	*	*	*I"Violino Secondo	*	*I"Violino Primo	*I"Baſso	*I"Tenore	*I"Alto	*	*I"Canto	*I"Cornu Secondo ex D	*I"Cornu Primo ex D	*I"Flauto Secondo	*I"Flauto Primo
*I'org	*	*	*I'vl 2	*	*I'vl 1	*I'B	*I'T	*I'A	*	*I'S	*I'cor 2	*I'cor 1	*I'fl 2	*I'fl 1
*Iorgan	*	*	*Ivioln	*	*Ivioln	*Ibass	*Itenor	*Ialto	*	*Isoprn	*Icor	*Icor	*Iflt	*Iflt
*ICklav	*	*	*ICstr	*	*ICstr	*ICvox	*ICvox	*ICvox	*	*ICvox	*ICbras	*ICbras	*ICww	*ICww
*clefF4	*	*	*clefG2	*	*clefG2	*clefF4	*clefC4	*clefC3	*	*clefC1	*clefG2	*clefG2	*clefG2	*clefG2
*	*	*	*	*	*	*	*	*	*	*	*ITrd6c10	*ITrd6c10	*	*
*k[f#]	*	*	*k[f#]	*	*k[f#]	*k[f#]	*k[f#]	*k[f#]	*	*k[f#]	*k[f#]	*k[f#]	*k[f#]	*k[f#]
*G:	*	*	*G:	*	*G:	*G:	*G:	*G:	*	*G:	*G:	*G:	*G:	*G:
*M3/4	*	*	*M3/4	*	*M3/4	*M3/4	*M3/4	*M3/4	*	*M3/4	*M3/4	*M3/4	*M3/4	*M3/4
=1	=1	=1	=1	=1	=1	=1	=1	=1	=1	=1	=1	=1	=1	=1
!LO:TX:a:t=solo	!	!	!LO:TX:a:i:t=Solo	!	!	!	!	!LO:TX:a:i:t=Solo&colon;	!	!	!	!	!	!
!LO:TX:a:t=andan&colon;	!	!	!LO:TX:a:i:t=andan&colon;	!	!LO:TX:a:t=problem&colon;brak partii w źródle	!LO:TX:a:t=Et Miſericordia Tacet	!LO:TX:a:t=Et Miſericordia Tacet	!LO:TX:a:i:t=and&colon;	!	!LO:TX:a:t=Et Miſericordia Tacet	!LO:TX:a:t=Et Miſericordia Tacet	!LO:TX:a:t=Et Miſericordia\nTacet	!LO:TX:a:t=problem&colon;brak partii w źródle	!LO:TX:a:t=problem&colon;brak partii w źródle
8G\L	.	.	8B/L	.	2.ryy	2.ryy	2.ryy	0.r	.	2.ryy	2.ryy	2.ryy	2.ryy	2.ryy
8G\	.	.	8B/	.	.	.	.	.	.	.	.	.	.	.
8G\	.	.	8B/	.	.	.	.	.	.	.	.	.	.	.
8G\	.	.	8B/	.	.	.	.	.	.	.	.	.	.	.
8G\	.	.	8B/	.	.	.	.	.	.	.	.	.	.	.
8G\J	.	.	8B/J	.	.	.	.	.	.	.	.	.	.	.
=2	=2	=2	=2	=2	=2	=2	=2	=2	=2	=2	=2	=2	=2	=2
4D\	.	.	8.f#/L	.	2.ryy	2.ryy	2.ryy	.	.	2.ryy	2.ryy	2.ryy	2.ryy	2.ryy
.	.	.	32g/LL	.	.	.	.	.	.	.	.	.	.	.
.	.	.	32a/JJJ	.	.	.	.	.	.	.	.	.	.	.
4G\	.	.	8g/L	.	.	.	.	.	.	.	.	.	.	.
.	.	.	8b/J	.	.	.	.	.	.	.	.	.	.	.
8r	.	.	16a/LL	.	.	.	.	.	.	.	.	.	.	.
.	.	.	16b/	.	.	.	.	.	.	.	.	.	.	.
8B\	6	.	16cc/	.	.	.	.	.	.	.	.	.	.	.
.	.	.	16b/JJ	.	.	.	.	.	.	.	.	.	.	.
=3	=3	=3	=3	=3	=3	=3	=3	=3	=3	=3	=3	=3	=3	=3
8c\L	6	.	8cc/L	.	2.ryy	2.ryy	2.ryy	.	.	2.ryy	2.ryy	2.ryy	2.ryy	2.ryy
8c\	.	.	16b/L	.	.	.	.	.	.	.	.	.	.	.
.	.	.	16a/JJ	.	.	.	.	.	.	.	.	.	.	.
8d\	4	.	4g/	.	.	.	.	.	.	.	.	.	.	.
8d\	.	.	.	.	.	.	.	.	.	.	.	.	.	.
8D\	3	.	4f#/	.	.	.	.	.	.	.	.	.	.	.
8D\J	.	.	.	.	.	.	.	.	.	.	.	.	.	.
=4	=4	=4	=4	=4	=4	=4	=4	=4	=4	=4	=4	=4	=4	=4
4G\	.	.	16g/LL	.	2.ryy	2.ryy	2.ryy	.	.	2.ryy	2.ryy	2.ryy	2.ryy	2.ryy
.	.	.	16f#/	.	.	.	.	.	.	.	.	.	.	.
.	.	.	16g/	.	.	.	.	.	.	.	.	.	.	.
.	.	.	16a/JJ	.	.	.	.	.	.	.	.	.	.	.
4G\	.	.	8b/L	.	.	.	.	.	.	.	.	.	.	.
.	.	.	8b/J	.	.	.	.	.	.	.	.	.	.	.
8r	.	.	16a/LL	.	.	.	.	.	.	.	.	.	.	.
.	.	.	16b/	.	.	.	.	.	.	.	.	.	.	.
8B\	6	.	16cc/	.	.	.	.	.	.	.	.	.	.	.
.	.	.	16b/JJ	.	.	.	.	.	.	.	.	.	.	.
=5	=5	=5	=5	=5	=5	=5	=5	=5	=5	=5	=5	=5	=5	=5
8c\L	6	.	8cc/L	.	2.ryy	2.ryy	2.ryy	0.r	.	2.ryy	2.ryy	2.ryy	2.ryy	2.ryy
8c\	.	.	16b/L	.	.	.	.	.	.	.	.	.	.	.
.	.	.	16a/JJ	.	.	.	.	.	.	.	.	.	.	.
8d\	4	.	4g/	.	.	.	.	.	.	.	.	.	.	.
8d\	.	.	.	.	.	.	.	.	.	.	.	.	.	.
8D\	3	.	4f#/	.	.	.	.	.	.	.	.	.	.	.
8D\J	.	.	.	.	.	.	.	.	.	.	.	.	.	.
!	!	!	!LO:LB:g=original	!	!	!	!	!	!	!	!	!	!	!
=6	=6	=6	=6	=6	=6	=6	=6	=6	=6	=6	=6	=6	=6	=6
4G\	.	.	16g/LL	.	2.ryy	2.ryy	2.ryy	.	.	2.ryy	2.ryy	2.ryy	2.ryy	2.ryy
.	.	.	16f#/	.	.	.	.	.	.	.	.	.	.	.
.	.	.	16g/	.	.	.	.	.	.	.	.	.	.	.
.	.	.	16a/JJ	.	.	.	.	.	.	.	.	.	.	.
4G\	.	.	4g/	.	.	.	.	.	.	.	.	.	.	.
8r	.	.	8r	.	.	.	.	.	.	.	.	.	.	.
8B\	6	.	8g/	.	.	.	.	.	.	.	.	.	.	.
!LO:LB:g=original	!	!	!	!	!	!	!	!	!	!	!	!	!	!
=7	=7	=7	=7	=7	=7	=7	=7	=7	=7	=7	=7	=7	=7	=7
*2\right	*	*	*	*	*	*	*	*	*	*	*	*	*	*
*tremolo	*	*	*tremolo	*	*	*	*	*	*	*	*	*	*	*
8c\L	.	.	8g/L	.	2.ryy	2.ryy	2.ryy	.	.	2.ryy	2.ryy	2.ryy	2.ryy	2.ryy
8c\	.	.	8g/	.	.	.	.	.	.	.	.	.	.	.
8c\	.	.	8g/	.	.	.	.	.	.	.	.	.	.	.
8c\	.	.	8g/	.	.	.	.	.	.	.	.	.	.	.
8c\	.	.	8g/	.	.	.	.	.	.	.	.	.	.	.
8c\J	.	.	8g/J	.	.	.	.	.	.	.	.	.	.	.
=8	=8	=8	=8	=8	=8	=8	=8	=8	=8	=8	=8	=8	=8	=8
8B\L	6	.	8g/L	.	2.ryy	2.ryy	2.ryy	.	.	2.ryy	2.ryy	2.ryy	2.ryy	2.ryy
8B\	.	.	8g/	.	.	.	.	.	.	.	.	.	.	.
8B\	.	.	8g/	.	.	.	.	.	.	.	.	.	.	.
8B\	.	.	8g/	.	.	.	.	.	.	.	.	.	.	.
8B\	.	.	8g/	.	.	.	.	.	.	.	.	.	.	.
8B\J	.	.	8g/J	.	.	.	.	.	.	.	.	.	.	.
*Xtremolo	*	*	*Xtremolo	*	*	*	*	*	*	*	*	*	*	*
=9	=9	=9	=9	=9	=9	=9	=9	=9	=9	=9	=9	=9	=9	=9
8A\L	6 3	.	8f#/L	.	2.ryy	2.ryy	2.ryy	0.r	.	2.ryy	2.ryy	2.ryy	2.ryy	2.ryy
8A\	.	.	8f#/	.	.	.	.	.	.	.	.	.	.	.
8F#\	.	.	8a/	.	.	.	.	.	.	.	.	.	.	.
8F#\	.	.	8a/	.	.	.	.	.	.	.	.	.	.	.
8G\	.	.	8g/	.	.	.	.	.	.	.	.	.	.	.
8G\J	.	.	8g/J	.	.	.	.	.	.	.	.	.	.	.
=10	=10	=10	=10	=10	=10	=10	=10	=10	=10	=10	=10	=10	=10	=10
4d\	4	.	8g/L	.	2.ryy	2.ryy	2.ryy	.	.	2.ryy	2.ryy	2.ryy	2.ryy	2.ryy
.	.	.	16f#/L	.	.	.	.	.	.	.	.	.	.	.
.	.	.	16g/JJ	.	.	.	.	.	.	.	.	.	.	.
4D\	3	.	4f#/	.	.	.	.	.	.	.	.	.	.	.
4r	.	.	4r	.	.	.	.	.	.	.	.	.	.	.
=11	=11	=11	=11	=11	=11	=11	=11	=11	=11	=11	=11	=11	=11	=11
!	!	!LO:DY:a:t=p&colon;:rj	!	!LO:DY:a:t=p&colon;	!	!	!	!	!	!	!	!	!	!
4G\	.	p	16B/LL	p	2.ryy	2.ryy	2.ryy	.	.	2.ryy	2.ryy	2.ryy	2.ryy	2.ryy
.	.	.	16d/	.	.	.	.	.	.	.	.	.	.	.
.	.	.	16B/	.	.	.	.	.	.	.	.	.	.	.
.	.	.	16d/JJ	.	.	.	.	.	.	.	.	.	.	.
4G\	.	.	16B/LL	.	.	.	.	.	.	.	.	.	.	.
.	.	.	16d/	.	.	.	.	.	.	.	.	.	.	.
.	.	.	16B/	.	.	.	.	.	.	.	.	.	.	.
.	.	.	16d/JJ	.	.	.	.	.	.	.	.	.	.	.
4r	.	.	16B/LL	.	.	.	.	.	.	.	.	.	.	.
.	.	.	16d/	.	.	.	.	.	.	.	.	.	.	.
.	.	.	16B/	.	.	.	.	.	.	.	.	.	.	.
.	.	.	16d/JJ	.	.	.	.	.	.	.	.	.	.	.
=12	=12	=12	=12	=12	=12	=12	=12	=12	=12	=12	=12	=12	=12	=12
*	*	*	*tremolo	*	*	*	*	*	*	*	*	*	*	*
4D\	.	.	16A/LL	.	2.ryy	2.ryy	2.ryy	.	.	2.ryy	2.ryy	2.ryy	2.ryy	2.ryy
.	.	.	16d/	.	.	.	.	.	.	.	.	.	.	.
.	.	.	16A/	.	.	.	.	.	.	.	.	.	.	.
.	.	.	16d/	.	.	.	.	.	.	.	.	.	.	.
4D\	.	.	16A/	.	.	.	.	.	.	.	.	.	.	.
.	.	.	16d/	.	.	.	.	.	.	.	.	.	.	.
.	.	.	16A/	.	.	.	.	.	.	.	.	.	.	.
.	.	.	16d/	.	.	.	.	.	.	.	.	.	.	.
4r	.	.	16A/	.	.	.	.	.	.	.	.	.	.	.
.	.	.	16d/	.	.	.	.	.	.	.	.	.	.	.
.	.	.	16A/	.	.	.	.	.	.	.	.	.	.	.
.	.	.	16d/JJ	.	.	.	.	.	.	.	.	.	.	.
=13	=13	=13	=13	=13	=13	=13	=13	=13	=13	=13	=13	=13	=13	=13
4G\	.	.	16B/LL	.	2.ryy	2.ryy	2.ryy	0.r	.	2.ryy	2.ryy	2.ryy	2.ryy	2.ryy
.	.	.	16d/	.	.	.	.	.	.	.	.	.	.	.
.	.	.	16B/	.	.	.	.	.	.	.	.	.	.	.
.	.	.	16d/	.	.	.	.	.	.	.	.	.	.	.
4G\	.	.	16B/	.	.	.	.	.	.	.	.	.	.	.
.	.	.	16d/	.	.	.	.	.	.	.	.	.	.	.
.	.	.	16B/	.	.	.	.	.	.	.	.	.	.	.
.	.	.	16d/	.	.	.	.	.	.	.	.	.	.	.
4r	.	.	16B/	.	.	.	.	.	.	.	.	.	.	.
.	.	.	16d/	.	.	.	.	.	.	.	.	.	.	.
.	.	.	16B/	.	.	.	.	.	.	.	.	.	.	.
.	.	.	16d/JJ	.	.	.	.	.	.	.	.	.	.	.
!	!	!	!LO:LB:g=original	!	!	!	!	!	!	!	!	!	!	!
=14	=14	=14	=14	=14	=14	=14	=14	=14	=14	=14	=14	=14	=14	=14
4D\	.	.	16A/LL	.	2.ryy	2.ryy	2.ryy	.	.	2.ryy	2.ryy	2.ryy	2.ryy	16ryy
.	.	.	16d/	.	.	.	.	.	.	.	.	.	.	16ryy
.	.	.	16A/	.	.	.	.	.	.	.	.	.	.	8ryy
.	.	.	16d/	.	.	.	.	.	.	.	.	.	.	.
4D\	.	.	16A/	.	.	.	.	.	.	.	.	.	.	2ryy
.	.	.	16d/	.	.	.	.	.	.	.	.	.	.	.
.	.	.	16A/	.	.	.	.	.	.	.	.	.	.	.
.	.	.	16d/	.	.	.	.	.	.	.	.	.	.	.
4r	.	.	16A/	.	.	.	.	.	.	.	.	.	.	.
.	.	.	16d/	.	.	.	.	.	.	.	.	.	.	.
.	.	.	16A/	.	.	.	.	.	.	.	.	.	.	.
.	.	.	16d/JJ	.	.	.	.	.	.	.	.	.	.	.
*	*	*	*Xtremolo	*	*	*	*	*	*	*	*	*	*	*
=15	=15	=15	=15	=15	=15	=15	=15	=15	=15	=15	=15	=15	=15	=15
!	!	!LO:DY:a:rj	!	!LO:DY:a:t=f&colon;	!	!	!	!	!	!	!	!	!	!
8G\L	.	f	8B/L	f	2.ryy	2.ryy	2.ryy	.	.	2.ryy	2.ryy	2.ryy	2.ryy	8ryy
8G\	.	.	16g/L	.	.	.	.	.	.	.	.	.	.	8ryy
.	.	.	16a/JJ	.	.	.	.	.	.	.	.	.	.	.
8B\	6_	.	8g/L	.	.	.	.	.	.	.	.	.	.	2ryy
8B\	.	.	8f#/J	.	.	.	.	.	.	.	.	.	.	.
8B\	.	.	16g/LL	.	.	.	.	.	.	.	.	.	.	.
.	.	.	16f#/	.	.	.	.	.	.	.	.	.	.	.
8B\J	x	.	16e/	.	.	.	.	.	.	.	.	.	.	.
.	.	.	16d/JJ	.	.	.	.	.	.	.	.	.	.	.
=16	=16	=16	=16	=16	=16	=16	=16	=16	=16	=16	=16	=16	=16	=16
*tremolo	*	*	*	*	*	*	*	*	*	*	*	*	*	*
8c\L	.	.	8e/L	.	2.ryy	2.ryy	2.ryy	.	.	2.ryy	2.ryy	2.ryy	2.ryy	2.ryy
8c\	.	.	16e/L	.	.	.	.	.	.	.	.	.	.	.
.	.	.	16d/JJ	.	.	.	.	.	.	.	.	.	.	.
8c\	.	.	8e/L	.	.	.	.	.	.	.	.	.	.	.
8c\	.	.	8e/J	.	.	.	.	.	.	.	.	.	.	.
8c\	.	.	16e/LL	.	.	.	.	.	.	.	.	.	.	.
.	.	.	16f#/	.	.	.	.	.	.	.	.	.	.	.
8c\J	.	.	16g/	.	.	.	.	.	.	.	.	.	.	.
.	.	.	16e/JJ	.	.	.	.	.	.	.	.	.	.	.
*Xtremolo	*	*	*	*	*	*	*	*	*	*	*	*	*	*
!LO:LB:g=original	!	!	!	!	!	!	!	!	!	!	!	!	!	!
=17	=17	=17	=17	=17	=17	=17	=17	=17	=17	=17	=17	=17	=17	=17
8B\L	6	.	8d/L	.	2.ryy	2.ryy	2.ryy	1.r	.	2.ryy	2.ryy	2.ryy	2.ryy	2.ryy
8c\	6	.	8a/J	.	.	.	.	.	.	.	.	.	.	.
8d\	4	.	4g/	.	.	.	.	.	.	.	.	.	.	.
8d\	.	.	.	.	.	.	.	.	.	.	.	.	.	.
8D\	3	.	4f#/	.	.	.	.	.	.	.	.	.	.	.
8D\J	.	.	.	.	.	.	.	.	.	.	.	.	.	.
=18	=18	=18	=18	=18	=18	=18	=18	=18	=18	=18	=18	=18	=18	=18
4G\	.	.	8g/L	.	2.ryy	2.ryy	2.ryy	.	.	2.ryy	2.ryy	2.ryy	2.ryy	2.ryy
.	.	.	8a/J	.	.	.	.	.	.	.	.	.	.	.
4GG/	.	.	4g/	.	.	.	.	.	.	.	.	.	.	.
4r	.	.	4r	.	.	.	.	.	.	.	.	.	.	.
=19	=19	=19	=19	=19	=19	=19	=19	=19	=19	=19	=19	=19	=19	=19
*	*	*	*tremolo	*	*	*	*	*	*	*	*	*	*	*
!	!	!LO:DY:a:t=p&colon;:rj	!	!LO:DY:a:t=p&colon;	!	!	!	!	!	!	!	!	!	!
8G\L	.	p	8B/L	p	2.ryy	2.ryy	2.ryy	4.dd\	Et	2.ryy	2.ryy	2.ryy	2.ryy	2.ryy
8G\	.	.	8B/	.	.	.	.	.	.	.	.	.	.	.
8G\	.	.	8B/	.	.	.	.	.	.	.	.	.	.	.
8G\	.	.	8B/	.	.	.	.	16ee\LL	mi-	.	.	.	.	.
.	.	.	.	.	.	.	.	16dd\JJ	.	.	.	.	.	.
8G\	.	.	8B/	.	.	.	.	16cc\LL	-ſe-	.	.	.	.	.
.	.	.	.	.	.	.	.	16b\JJ	.	.	.	.	.	.
8G\J	.	.	8B/J	.	.	.	.	16a\LL	-ri-	.	.	.	.	.
.	.	.	.	.	.	.	.	16g\JJ	.	.	.	.	.	.
*	*	*	*Xtremolo	*	*	*	*	*	*	*	*	*	*	*
=20	=20	=20	=20	=20	=20	=20	=20	=20	=20	=20	=20	=20	=20	=20
4D\	.	.	8.e/L	.	2.ryy	2.ryy	2.ryy	8.a\	-cor-	2.ryy	2.ryy	2.ryy	2.ryy	2.ryy
.	.	.	32g/LL	.	.	.	.	32b\LLL	-di-	.	.	.	.	.
.	.	.	32a/JJJ	.	.	.	.	32cc\JJJ	.	.	.	.	.	.
4G\	.	.	8g/L	.	.	.	.	4b\	-a	.	.	.	.	.
.	.	.	8b/J	.	.	.	.	.	.	.	.	.	.	.
8r	.	.	16a/LL	.	.	.	.	8r	.	.	.	.	.	.
.	.	.	16b/	.	.	.	.	.	.	.	.	.	.	.
8B\	6	.	16cc/	.	.	.	.	(>8dd\	e-	.	.	.	.	.
.	.	.	16b/JJ	.	.	.	.	.	.	.	.	.	.	.
!	!	!	!LO:LB:g=original	!	!	!	!	!	!	!	!	!	!	!
=21	=21	=21	=21	=21	=21	=21	=21	=21	=21	=21	=21	=21	=21	=21
8c\L	6	.	8cc/L	.	2.ryy	2.ryy	2.ryy	8ee\)	.	2.ryy	2.ryy	2.ryy	2.ryy	2.ryy
8c\	.	.	16b/L	.	.	.	.	16dd\LL	-jus	.	.	.	.	.
.	.	.	16a/JJ	.	.	.	.	16cc\JJ	.	.	.	.	.	.
8d\	4	.	4g/	.	.	.	.	4b\	a	.	.	.	.	.
8d\	.	.	.	.	.	.	.	.	.	.	.	.	.	.
8D\	3	.	4f#/	.	.	.	.	4a\	pro-	.	.	.	.	.
8D\J	.	.	.	.	.	.	.	.	.	.	.	.	.	.
!	!	!	!	!	!	!	!	!LO:LB:g=original	!	!	!	!	!	!
=22	=22	=22	=22	=22	=22	=22	=22	=22	=22	=22	=22	=22	=22	=22
4G\	.	.	16g/LL	.	2.ryy	2.ryy	2.ryy	16b\LL	-ge-	2.ryy	2.ryy	2.ryy	2.ryy	2.ryy
.	.	.	16f#/	.	.	.	.	16a\JJ	.	.	.	.	.	.
.	.	.	16g/	.	.	.	.	16b\LL	-ni-	.	.	.	.	.
.	.	.	16a/JJ	.	.	.	.	16cc\JJ	.	.	.	.	.	.
4G\	.	.	8b/L	.	.	.	.	4dd\	-e	.	.	.	.	.
.	.	.	8b/J	.	.	.	.	.	.	.	.	.	.	.
8r	.	.	16a/LL	.	.	.	.	8r	.	.	.	.	.	.
.	.	.	16b/	.	.	.	.	.	.	.	.	.	.	.
8B\	6	.	16cc/	.	.	.	.	8dd\	in	.	.	.	.	.
.	.	.	16b/JJ	.	.	.	.	.	.	.	.	.	.	.
=23	=23	=23	=23	=23	=23	=23	=23	=23	=23	=23	=23	=23	=23	=23
8c\L	6	.	8cc/L	.	2.ryy	2.ryy	2.ryy	8ee\L	.	2.ryy	2.ryy	2.ryy	2.ryy	2.ryy
8c\	.	.	16b/L	.	.	.	.	16dd\L	.	.	.	.	.	.
.	.	.	16a/JJ	.	.	.	.	16cc\JJ	.	.	.	.	.	.
8d\	4	.	4g/	.	.	.	.	4b\	.	.	.	.	.	.
8d\	.	.	.	.	.	.	.	.	.	.	.	.	.	.
8D\	3	.	4f#/	.	.	.	.	4a\	pro-	.	.	.	.	.
8D\J	.	.	.	.	.	.	.	.	.	.	.	.	.	.
!LO:LB:g=original	!	!	!	!	!	!	!	!	!	!	!	!	!	!
=24	=24	=24	=24	=24	=24	=24	=24	=24	=24	=24	=24	=24	=24	=24
4G\	.	.	16g/LL	.	2.ryy	2.ryy	2.ryy	16b\LL	-ge-	2.ryy	2.ryy	2.ryy	2.ryy	2.ryy
.	.	.	16f#/	.	.	.	.	16a\JJ	.	.	.	.	.	.
.	.	.	16g/	.	.	.	.	16b\LL	-ni-	.	.	.	.	.
.	.	.	16a/JJ	.	.	.	.	16cc\JJ	.	.	.	.	.	.
4G\	.	.	4g/	.	.	.	.	4b\	-es	.	.	.	.	.
8r	.	.	8r	.	.	.	.	8r	.	.	.	.	.	.
8B\	.	.	8g/	.	.	.	.	8dd\	ti-	.	.	.	.	.
=25	=25	=25	=25	=25	=25	=25	=25	=25	=25	=25	=25	=25	=25	=25
*tremolo	*	*	*tremolo	*	*	*	*	*	*	*	*	*	*	*
8c\L	.	.	8g/L	.	2.ryy	2.ryy	2.ryy	8.ee\	-men-	2.ryy	2.ryy	2.ryy	2.ryy	2.ryy
8c\	.	.	8g/	.	.	.	.	.	.	.	.	.	.	.
.	.	.	.	.	.	.	.	16cc\	-ti-	.	.	.	.	.
8c\	.	.	8g/	.	.	.	.	4g\	-bus	.	.	.	.	.
8c\	.	.	8g/	.	.	.	.	.	.	.	.	.	.	.
8c\	.	.	8g/	.	.	.	.	8r	.	.	.	.	.	.
8c\J	.	.	8g/J	.	.	.	.	8ee\	ti-	.	.	.	.	.
=26	=26	=26	=26	=26	=26	=26	=26	=26	=26	=26	=26	=26	=26	=26
8B\L	6	.	8g/L	.	2.ryy	2.ryy	2.ryy	8.dd\	-men-	2.ryy	2.ryy	2.ryy	2.ryy	2.ryy
8B\	.	.	8g/	.	.	.	.	.	.	.	.	.	.	.
.	.	.	.	.	.	.	.	16b\	-ti-	.	.	.	.	.
!	!	!	!	!	!	!	!	!LO:LB:g=original	!	!	!	!	!	!
=-	=-	=-	=-	=-	=-	=-	=-	=-	=-	=-	=-	=-	=-	=-
8B\	.	.	8g/	.	.	.	.	4g\	-bus	.	.	.	.	.
8B\	.	.	8g/	.	.	.	.	.	.	.	.	.	.	.
8B\	.	.	8g/	.	.	.	.	8r	.	.	.	.	.	.
8B\J	.	.	8g/J	.	.	.	.	8dd\	ti-	.	.	.	.	.
*Xtremolo	*	*	*Xtremolo	*	*	*	*	*	*	*	*	*	*	*
=27	=27	=27	=27	=27	=27	=27	=27	=27	=27	=27	=27	=27	=27	=27
8A\L	6 3	.	8f#/L	.	2.ryy	2.ryy	2.ryy	16dd\LL	-men-	2.ryy	2.ryy	2.ryy	2.ryy	2.ryy
.	.	.	.	.	.	.	.	16cc\	.	.	.	.	.	.
8A\	.	.	8f#/	.	.	.	.	16b\	.	.	.	.	.	.
.	.	.	.	.	.	.	.	16cc\JJ	.	.	.	.	.	.
8F#\	.	.	8a/	.	.	.	.	4cc\	-ti-	.	.	.	.	.
8F#\	.	.	8a/	.	.	.	.	.	.	.	.	.	.	.
8G\	.	.	8g/	.	.	.	.	4b\	-bus	.	.	.	.	.
8G\J	.	.	8g/J	.	.	.	.	.	.	.	.	.	.	.
!	!	!	!LO:PB:g=original	!	!	!	!	!	!	!	!	!	!	!
=28	=28	=28	=28	=28	=28	=28	=28	=28	=28	=28	=28	=28	=28	=28
4d\	4	.	8g/L	.	2.ryy	2.ryy	2.ryy	4b\	e-	2.ryy	2.ryy	2.ryy	2.ryy	2.ryy
.	.	.	16f#/L	.	.	.	.	.	.	.	.	.	.	.
.	.	.	16g/JJ	.	.	.	.	.	.	.	.	.	.	.
4D\	3	.	4f#/	.	.	.	.	4a\	-um	.	.	.	.	.
4r	.	.	4r	.	.	.	.	8r	.	.	.	.	.	.
.	.	.	.	.	.	.	.	8cc\	fe-	.	.	.	.	.
=29	=29	=29	=29	=29	=29	=29	=29	=29	=29	=29	=29	=29	=29	=29
8r	.	.	8r	.	2.ryy	2.ryy	2.ryy	16cc\LL	.	2.ryy	2.ryy	2.ryy	2.ryy	2.ryy
.	.	.	.	.	.	.	.	16b\	.	.	.	.	.	.
8G\L	.	.	8d/L	.	.	.	.	16a\	.	.	.	.	.	.
.	.	.	.	.	.	.	.	16b\JJ	.	.	.	.	.	.
8G\	.	.	8d/	.	.	.	.	4.b\	-cit	.	.	.	.	.
8G\	.	.	8d/	.	.	.	.	.	.	.	.	.	.	.
8G\	.	.	8d/	.	.	.	.	.	.	.	.	.	.	.
8G\J	.	.	8d/J	.	.	.	.	8dd\	po-	.	.	.	.	.
=30	=30	=30	=30	=30	=30	=30	=30	=30	=30	=30	=30	=30	=30	=30
8r	.	.	8r	.	2.ryy	2.ryy	2.ryy	16dd\LL	-ten-	2.ryy	2.ryy	2.ryy	2.ryy	2.ryy
.	.	.	.	.	.	.	.	16cc\JJ	.	.	.	.	.	.
8F#\L	6_ 5_	.	8d/L	.	.	.	.	16b\LL	-ti-	.	.	.	.	.
.	.	.	.	.	.	.	.	16cc\JJ	.	.	.	.	.	.
8F#\	.	.	8d/	.	.	.	.	4cc\	-am	.	.	.	.	.
8F#\	.	.	8d/	.	.	.	.	.	.	.	.	.	.	.
8F#\	.	.	8d/	.	.	.	.	8r	.	.	.	.	.	.
8F#\J	x x	.	8d/J	.	.	.	.	8a\	in	.	.	.	.	.
!	!	!	!	!	!	!	!	!LO:LB:g=original	!	!	!	!	!	!
=31	=31	=31	=31	=31	=31	=31	=31	=31	=31	=31	=31	=31	=31	=31
8G\L	.	.	8g/L	.	2.ryy	2.ryy	2.ryy	8g\L	bra-	2.ryy	2.ryy	2.ryy	2.ryy	2.ryy
(16A\L	.	.	16a/L	.	.	.	.	16a\L	.	.	.	.	.	.
16B\JJ)	.	.	16b/JJ	.	.	.	.	16b\JJ	.	.	.	.	.	.
8c|>\L	.	.	8cc/L	.	.	.	.	8cc\L	.	.	.	.	.	.
8B|>\	.	.	8b/	.	.	.	.	8b\J	.	.	.	.	.	.
8A|>\	.	.	8a/	.	.	.	.	8a\	-chi-	.	.	.	.	.
8G|>\J	.	.	8g/J	.	.	.	.	8g\	-o-	.	.	.	.	.
!LO:LB:g=original	!	!	!	!	!	!	!	!	!	!	!	!	!	!
=32	=32	=32	=32	=32	=32	=32	=32	=32	=32	=32	=32	=32	=32	=32
8d\L	.	.	4dd\	.	2.ryy	2.ryy	2.ryy	4dd\	-Su-	2.ryy	2.ryy	2.ryy	2.ryy	2.ryy
8D\	.	.	.	.	.	.	.	.	.	.	.	.	.	.
8D\	.	.	4d/	.	.	.	.	4d\	-o	.	.	.	.	.
8D\	.	.	.	.	.	.	.	.	.	.	.	.	.	.
8D\	.	.	8r	.	.	.	.	8r	.	.	.	.	.	.
8D\J	.	.	8f#/	.	.	.	.	8f#\	di-	.	.	.	.	.
=33	=33	=33	=33	=33	=33	=33	=33	=33	=33	=33	=33	=33	=33	=33
*tremolo	*	*	*tremolo	*	*	*	*	*	*	*	*	*	*	*
8D\L	6 4	.	8g/L	.	2.ryy	2.ryy	2.ryy	16g\LL	-ſper-	2.ryy	2.ryy	2.ryy	2.ryy	2.ryy
.	.	.	.	.	.	.	.	16d\	.	.	.	.	.	.
8D\	.	.	8g/	.	.	.	.	16e\	.	.	.	.	.	.
.	.	.	.	.	.	.	.	16f#\JJ	.	.	.	.	.	.
8D\	.	.	8g/	.	.	.	.	16g\LL	.	.	.	.	.	.
.	.	.	.	.	.	.	.	16f#\	.	.	.	.	.	.
8D\	.	.	8g/	.	.	.	.	16g\	.	.	.	.	.	.
.	.	.	.	.	.	.	.	16a\JJ	.	.	.	.	.	.
8D\	.	.	8g/	.	.	.	.	8b\L	.	.	.	.	.	.
8D\J	.	.	8g/J	.	.	.	.	16a\L	.	.	.	.	.	.
.	.	.	.	.	.	.	.	16g\JJ	.	.	.	.	.	.
=34	=34	=34	=34	=34	=34	=34	=34	=34	=34	=34	=34	=34	=34	=34
8D\L	5 3	.	8f#/L	.	2.ryy	2.ryy	2.ryy	8f#\L	.	2.ryy	2.ryy	2.ryy	2.ryy	2.ryy
8D\	.	.	8f#/	.	.	.	.	16d\L	.	.	.	.	.	.
.	.	.	.	.	.	.	.	16e\JJ	.	.	.	.	.	.
8D\	.	.	8f#/	.	.	.	.	16f#\LL	.	.	.	.	.	.
.	.	.	.	.	.	.	.	16e\	.	.	.	.	.	.
8D\	.	.	8f#/	.	.	.	.	16f#\	.	.	.	.	.	.
.	.	.	.	.	.	.	.	16g\JJ	.	.	.	.	.	.
8D\	.	.	8f#/	.	.	.	.	8a\L	.	.	.	.	.	.
8D\J	.	.	8f#/J	.	.	.	.	16g\L	.	.	.	.	.	.
.	.	.	.	.	.	.	.	16f#\JJ	.	.	.	.	.	.
!	!	!	!	!	!	!	!	!LO:LB:g=original	!	!	!	!	!	!
=35	=35	=35	=35	=35	=35	=35	=35	=35	=35	=35	=35	=35	=35	=35
8C#X/L	6 5	.	8e/L	.	2.ryy	2.ryy	2.ryy	16e\LL	.	2.ryy	2.ryy	2.ryy	2.ryy	2.ryy
.	.	.	.	.	.	.	.	16A\	.	.	.	.	.	.
8C#X/	.	.	8e/	.	.	.	.	16B\	.	.	.	.	.	.
.	.	.	.	.	.	.	.	16c#X\JJ	.	.	.	.	.	.
8C#X/	.	.	8e/	.	.	.	.	16d\LL	.	.	.	.	.	.
.	.	.	.	.	.	.	.	16e\	.	.	.	.	.	.
8C#X/	.	.	8e/	.	.	.	.	16f#\	.	.	.	.	.	.
.	.	.	.	.	.	.	.	16g\JJ	.	.	.	.	.	.
8C#X/	.	.	8e/	.	.	.	.	16a\LL	.	.	.	.	.	.
.	.	.	.	.	.	.	.	16g\	.	.	.	.	.	.
8C#X/J	.	.	8e/J	.	.	.	.	16f#\	.	.	.	.	.	.
.	.	.	.	.	.	.	.	16e\JJ	.	.	.	.	.	.
*Xtremolo	*	*	*	*	*	*	*	*	*	*	*	*	*	*
=36	=36	=36	=36	=36	=36	=36	=36	=36	=36	=36	=36	=36	=36	=36
8D\L	.	.	8f#/L	.	2.ryy	2.ryy	2.ryy	8f#\L	.	2.ryy	2.ryy	2.ryy	2.ryy	2.ryy
8D\	.	.	8f#/	.	.	.	.	16d\L	.	.	.	.	.	.
.	.	.	.	.	.	.	.	16e\JJ	.	.	.	.	.	.
8D\	.	.	8f#/	.	.	.	.	16f#\LL	.	.	.	.	.	.
.	.	.	.	.	.	.	.	16g\	.	.	.	.	.	.
8D\	.	.	8f#/J	.	.	.	.	16a\	.	.	.	.	.	.
.	.	.	.	.	.	.	.	16f#\JJ	.	.	.	.	.	.
*	*	*	*Xtremolo	*	*	*	*	*	*	*	*	*	*	*
8F#\	6	.	8d/L	.	.	.	.	16e\LL	.	.	.	.	.	.
.	.	.	.	.	.	.	.	16d\	.	.	.	.	.	.
8F#\J	.	.	8d/J	.	.	.	.	16c#X\	.	.	.	.	.	.
.	.	.	.	.	.	.	.	16d\JJ	.	.	.	.	.	.
!	!	!	!LO:LB:g=original	!	!	!	!	!	!	!	!	!	!	!
=37	=37	=37	=37	=37	=37	=37	=37	=37	=37	=37	=37	=37	=37	=37
*	*	*	*tremolo	*	*	*	*	*	*	*	*	*	*	*
8G\L	6_	.	8e/L	.	2.ryy	2.ryy	2.ryy	16d#X\LL	-sit	2.ryy	2.ryy	2.ryy	2.ryy	2.ryy
.	.	.	.	.	.	.	.	16e\JJ	.	.	.	.	.	.
8G\	.	.	8e/	.	.	.	.	16d#\LL	ſu-	.	.	.	.	.
.	.	.	.	.	.	.	.	16e\JJ	.	.	.	.	.	.
8G\	.	.	8e/	.	.	.	.	4.e\	-per-	.	.	.	.	.
8G\	.	.	8e/	.	.	.	.	.	.	.	.	.	.	.
8A\	3_	.	8e/	.	.	.	.	.	.	.	.	.	.	.
8A\J	x	.	8e/J	.	.	.	.	16f#\LL	-bos	.	.	.	.	.
.	.	.	.	.	.	.	.	16g\JJ	.	.	.	.	.	.
*	*	*	*Xtremolo	*	*	*	*	*	*	*	*	*	*	*
!	!	!	!	!	!	!	!	!LO:PB:g=original	!	!	!	!	!	!
=38	=38	=38	=38	=38	=38	=38	=38	=38	=38	=38	=38	=38	=38	=38
8B\L	3_	.	8f#/L	.	2.ryy	2.ryy	2.ryy	8f#\	men-	2.ryy	2.ryy	2.ryy	2.ryy	2.ryy
8A\	.	.	8f#/J	.	.	.	.	16e\LL	-te	.	.	.	.	.
.	.	.	.	.	.	.	.	16f#\JJ	.	.	.	.	.	.
8G\	6	.	8b\L	.	.	.	.	4g\	Cor-	.	.	.	.	.
8G\	.	.	8b\	.	.	.	.	.	.	.	.	.	.	.
8G#X\	5	.	8b\	.	.	.	.	4f#\	-dis	.	.	.	.	.
8G#\J	.	.	8b\J	.	.	.	.	.	.	.	.	.	.	.
=39	=39	=39	=39	=39	=39	=39	=39	=39	=39	=39	=39	=39	=39	=39
4A\	4	.	4f#/	.	2.ryy	2.ryy	2.ryy	4f#\	Su-	2.ryy	2.ryy	2.ryy	2.ryy	2.ryy
4AA/	#	.	4e/	.	.	.	.	4e\	-i	.	.	.	.	.
4r	.	.	4r	.	.	.	.	8r	.	.	.	.	.	.
.	.	.	.	.	.	.	.	8e\	De-	.	.	.	.	.
!LO:PB:g=original	!	!	!	!	!	!	!	!	!	!	!	!	!	!
=40	=40	=40	=40	=40	=40	=40	=40	=40	=40	=40	=40	=40	=40	=40
8D\	.	.	8r	.	2.ryy	2.ryy	2.ryy	4.f#\	-poſ-	2.ryy	2.ryy	2.ryy	2.ryy	2.ryy
8r	.	.	8d/	.	.	.	.	.	.	.	.	.	.	.
8D\	.	.	8r	.	.	.	.	.	.	.	.	.	.	.
8r	.	.	8d/	.	.	.	.	16g\LL	-su-	.	.	.	.	.
.	.	.	.	.	.	.	.	16a\JJ	.	.	.	.	.	.
8D\	.	.	8r	.	.	.	.	16b\LL	-it	.	.	.	.	.
.	.	.	.	.	.	.	.	16a\JJ	.	.	.	.	.	.
8r	.	.	8d/	.	.	.	.	16g\LL	po-	.	.	.	.	.
.	.	.	.	.	.	.	.	16f#\JJ	.	.	.	.	.	.
=41	=41	=41	=41	=41	=41	=41	=41	=41	=41	=41	=41	=41	=41	=41
8AA/	#_	.	8r	.	2.ryy	2.ryy	2.ryy	8f#\L	-ten-	2.ryy	2.ryy	2.ryy	2.ryy	2.ryy
8r	.	.	8c#X/	.	.	.	.	8e\J	.	.	.	.	.	.
8AA/	.	.	8r	.	.	.	.	4e\	-tes	.	.	.	.	.
8r	.	.	8c#/	.	.	.	.	.	.	.	.	.	.	.
8AA/	x	.	8r	.	.	.	.	8r	.	.	.	.	.	.
8r	.	.	8c#/	.	.	.	.	8e\	po-	.	.	.	.	.
=42	=42	=42	=42	=42	=42	=42	=42	=42	=42	=42	=42	=42	=42	=42
8D\	.	.	8r	.	2.ryy	2.ryy	2.ryy	(4.f#\	-ten-	2.ryy	2.ryy	2.ryy	2.ryy	2.ryy
8r	.	.	8d/	.	.	.	.	.	.	.	.	.	.	.
8D\	.	.	8r	.	.	.	.	.	.	.	.	.	.	.
8r	.	.	8d/	.	.	.	.	16g\LL)	.	.	.	.	.	.
.	.	.	.	.	.	.	.	16a\JJ	.	.	.	.	.	.
!	!	!	!	!	!	!	!	!LO:LB:g=original	!	!	!	!	!	!
=-	=-	=-	=-	=-	=-	=-	=-	=-	=-	=-	=-	=-	=-	=-
8D\	.	.	8r	.	.	.	.	16b\LL	-tes	.	.	.	.	.
.	.	.	.	.	.	.	.	16a\JJ	.	.	.	.	.	.
8r	.	.	8d/	.	.	.	.	16g\LL	de	.	.	.	.	.
.	.	.	.	.	.	.	.	16f#\JJ	.	.	.	.	.	.
=43	=43	=43	=43	=43	=43	=43	=43	=43	=43	=43	=43	=43	=43	=43
8AA/	#_	.	8r	.	2.ryy	2.ryy	2.ryy	8f#\L	ſe-	2.ryy	2.ryy	2.ryy	2.ryy	2.ryy
8r	.	.	8c#X/	.	.	.	.	8e\J	.	.	.	.	.	.
8AA/	.	.	8r	.	.	.	.	4e\	-de	.	.	.	.	.
8r	.	.	8c#/	.	.	.	.	.	.	.	.	.	.	.
!	!	!	!LO:LB:g=original	!	!	!	!	!	!	!	!	!	!	!
=-	=-	=-	=-	=-	=-	=-	=-	=-	=-	=-	=-	=-	=-	=-
8AA/	x	.	8r	.	.	.	.	8r	.	.	.	.	.	.
8r	.	.	8c#/	.	.	.	.	8e\	(et)	.	.	.	.	.
=44	=44	=44	=44	=44	=44	=44	=44	=44	=44	=44	=44	=44	=44	=44
8C#X/	6_ 5_	.	8r	.	2.ryy	2.ryy	2.ryy	4.g\	ex-	2.ryy	2.ryy	2.ryy	2.ryy	2.ryy
8r	.	.	8A/	.	.	.	.	.	.	.	.	.	.	.
8C#/	.	.	8r	.	.	.	.	.	.	.	.	.	.	.
8r	.	.	8A/	.	.	.	.	16a\LL	.	.	.	.	.	.
.	.	.	.	.	.	.	.	16g\JJ	.	.	.	.	.	.
8C#/	x x	.	8r	.	.	.	.	16f#\LL	.	.	.	.	.	.
.	.	.	.	.	.	.	.	16e\JJ	.	.	.	.	.	.
8r	.	.	8A/	.	.	.	.	16f#\LL	-al-	.	.	.	.	.
.	.	.	.	.	.	.	.	16g\JJ	.	.	.	.	.	.
=45	=45	=45	=45	=45	=45	=45	=45	=45	=45	=45	=45	=45	=45	=45
8D\	.	.	8r	.	2.ryy	2.ryy	2.ryy	4.a\	-ta-	2.ryy	2.ryy	2.ryy	2.ryy	2.ryy
8r	.	.	8A/	.	.	.	.	.	.	.	.	.	.	.
8D\	.	.	8r	.	.	.	.	.	.	.	.	.	.	.
8r	.	.	8A/	.	.	.	.	16b\LL	.	.	.	.	.	.
.	.	.	.	.	.	.	.	16a\JJ	.	.	.	.	.	.
8D\	.	.	8r	.	.	.	.	16g\LL	.	.	.	.	.	.
.	.	.	.	.	.	.	.	16f#\	.	.	.	.	.	.
8r	.	.	8A/	.	.	.	.	16e\	.	.	.	.	.	.
.	.	.	.	.	.	.	.	16f#\JJ	.	.	.	.	.	.
!LO:LB:g=original	!	!	!	!	!	!	!	!	!	!	!	!	!	!
=46	=46	=46	=46	=46	=46	=46	=46	=46	=46	=46	=46	=46	=46	=46
8G\	6_	.	8r	.	2.ryy	2.ryy	2.ryy	16g\LL	.	2.ryy	2.ryy	2.ryy	2.ryy	2.ryy
.	.	.	.	.	.	.	.	16f#\	.	.	.	.	.	.
8r	.	.	8e/	.	.	.	.	16g\	.	.	.	.	.	.
.	.	.	.	.	.	.	.	16a\JJ	.	.	.	.	.	.
8G\	.	.	8r	.	.	.	.	4g\	.	.	.	.	.	.
8r	.	.	8e/	.	.	.	.	.	.	.	.	.	.	.
8G#X\	5	.	8r	.	.	.	.	4f#\	-vit	.	.	.	.	.
8r	.	.	8d/	.	.	.	.	.	.	.	.	.	.	.
!	!	!	!	!	!	!	!	!LO:LB:g=original	!	!	!	!	!	!
=47	=47	=47	=47	=47	=47	=47	=47	=47	=47	=47	=47	=47	=47	=47
4A\	4	.	8r	.	2.ryy	2.ryy	2.ryy	8f#\	hu-	2.ryy	2.ryy	2.ryy	2.ryy	2.ryy
.	.	.	4d/	.	.	.	.	8f#\	-mi-	.	.	.	.	.
4AA;>/	#	.	.	.	.	.	.	4e;>\	-les	.	.	.	.	.
.	.	.	4c#X;>/	.	.	.	.	.	.	.	.	.	.	.
4r	.	.	.	.	.	.	.	8r	.	.	.	.	.	.
.	.	.	8r	.	.	.	.	8e\	(et)	.	.	.	.	.
=48	=48	=48	=48	=48	=48	=48	=48	=48	=48	=48	=48	=48	=48	=48
*tremolo	*	*	*tremolo	*	*	*	*	*	*	*	*	*	*	*
8D\L	.	.	8f#/L	.	2.ryy	2.ryy	2.ryy	8f#\L	ex-	2.ryy	2.ryy	2.ryy	2.ryy	2.ryy
8D\	.	.	8f#/	.	.	.	.	16d\L	.	.	.	.	.	.
.	.	.	.	.	.	.	.	16e\JJ	.	.	.	.	.	.
8D\	.	.	8f#/	.	.	.	.	16f#\LL	.	.	.	.	.	.
.	.	.	.	.	.	.	.	16e\	.	.	.	.	.	.
8D\	.	.	8f#/	.	.	.	.	16f#\	.	.	.	.	.	.
.	.	.	.	.	.	.	.	16g\JJ	.	.	.	.	.	.
8D\	.	.	8f#/	.	.	.	.	8a\	.	.	.	.	.	.
8D\J	.	.	8f#/J	.	.	.	.	16g\LL	-al-	.	.	.	.	.
.	.	.	.	.	.	.	.	16f#\JJ	.	.	.	.	.	.
=49	=49	=49	=49	=49	=49	=49	=49	=49	=49	=49	=49	=49	=49	=49
8C#X/L	6 5	.	8e/L	.	2.ryy	2.ryy	2.ryy	16e\LL	-ta-	2.ryy	2.ryy	2.ryy	2.ryy	2.ryy
.	.	.	.	.	.	.	.	16A\	.	.	.	.	.	.
8C#X/	.	.	8e/	.	.	.	.	16B\	.	.	.	.	.	.
.	.	.	.	.	.	.	.	16c#X\JJ	.	.	.	.	.	.
8C#X/	.	.	8e/	.	.	.	.	16d\LL	.	.	.	.	.	.
.	.	.	.	.	.	.	.	16e\	.	.	.	.	.	.
8C#X/	.	.	8e/	.	.	.	.	16f#\	.	.	.	.	.	.
.	.	.	.	.	.	.	.	16g\JJ	.	.	.	.	.	.
8C#X/	.	.	8e/	.	.	.	.	16a\LL	.	.	.	.	.	.
.	.	.	.	.	.	.	.	16g\	.	.	.	.	.	.
8C#X/J	.	.	8e/J	.	.	.	.	16f#\	.	.	.	.	.	.
.	.	.	.	.	.	.	.	16e\JJ	.	.	.	.	.	.
*Xtremolo	*	*	*Xtremolo	*	*	*	*	*	*	*	*	*	*	*
=50	=50	=50	=50	=50	=50	=50	=50	=50	=50	=50	=50	=50	=50	=50
8D\L	.	.	8f#/L	.	2.ryy	2.ryy	2.ryy	8f#\L	.	2.ryy	2.ryy	2.ryy	2.ryy	2.ryy
8D\	.	.	8f#/	.	.	.	.	16d\L	.	.	.	.	.	.
.	.	.	.	.	.	.	.	16e\JJ	.	.	.	.	.	.
!	!	!	!	!	!	!	!	!LO:LB:g=original	!	!	!	!	!	!
=-	=-	=-	=-	=-	=-	=-	=-	=-	=-	=-	=-	=-	=-	=-
8D\	.	.	8f#/	.	.	.	.	16f#yy\	.	.	.	.	.	.
.	.	.	.	.	.	.	.	16g\LL	.	.	.	.	.	.
8D\	.	.	8f#/	.	.	.	.	16a\	.	.	.	.	.	.
.	.	.	.	.	.	.	.	16f#\JJ	.	.	.	.	.	.
8F#\	6	.	8d/	.	.	.	.	16e\LL	.	.	.	.	.	.
.	.	.	.	.	.	.	.	16d\	.	.	.	.	.	.
8F#\J	.	.	8d/J	.	.	.	.	16c#X\	.	.	.	.	.	.
.	.	.	.	.	.	.	.	16d\JJ	.	.	.	.	.	.
!	!	!	!LO:LB:g=original	!	!	!	!	!	!	!	!	!	!	!
=51	=51	=51	=51	=51	=51	=51	=51	=51	=51	=51	=51	=51	=51	=51
*	*	*	*tremolo	*	*	*	*	*	*	*	*	*	*	*
8G\L	6_	.	8e/L	.	2.ryy	2.ryy	2.ryy	16d#X\LL	.	2.ryy	2.ryy	2.ryy	2.ryy	2.ryy
.	.	.	.	.	.	.	.	16e\	.	.	.	.	.	.
8G\	.	.	8e/	.	.	.	.	16d#\	.	.	.	.	.	.
.	.	.	.	.	.	.	.	16e\JJ	.	.	.	.	.	.
8G\	.	.	8e/	.	.	.	.	4.e\	.	.	.	.	.	.
8G\	.	.	8e/	.	.	.	.	.	.	.	.	.	.	.
8A\	#_	.	8e/	.	.	.	.	.	.	.	.	.	.	.
8A\J	x	.	8e/J	.	.	.	.	16f#\LL	.	.	.	.	.	.
.	.	.	.	.	.	.	.	16g\JJ	.	.	.	.	.	.
*	*	*	*Xtremolo	*	*	*	*	*	*	*	*	*	*	*
=52	=52	=52	=52	=52	=52	=52	=52	=52	=52	=52	=52	=52	=52	=52
!LO:TX:t=P:problem=mixed beam	!	!	!	!	!	!	!	!	!	!	!	!	!	!
8B\L	.	.	8f#/L	.	2.ryy	2.ryy	2.ryy	8f#\	.	2.ryy	2.ryy	2.ryy	2.ryy	2.ryy
8F#\	6	.	8g/J	.	.	.	.	16b\LL	-bit	.	.	.	.	.
.	.	.	.	.	.	.	.	16f#\JJ	.	.	.	.	.	.
8G\	4	.	4f#/	.	.	.	.	4f#\	hu-	.	.	.	.	.
8A\	.	.	.	.	.	.	.	.	.	.	.	.	.	.
8AA/	#	.	4e/	.	.	.	.	4e\	-mi-	.	.	.	.	.
8AA/J	.	.	.	.	.	.	.	.	.	.	.	.	.	.
=53	=53	=53	=53	=53	=53	=53	=53	=53	=53	=53	=53	=53	=53	=53
4D\	.	.	16d/LL	.	2.ryy	2.ryy	2.ryy	4f#\	-les	2.ryy	2.ryy	2.ryy	2.ryy	2.ryy
.	.	.	16f#/	.	.	.	.	.	.	.	.	.	.	.
.	.	.	16d/	.	.	.	.	.	.	.	.	.	.	.
.	.	.	16f#/JJ	.	.	.	.	.	.	.	.	.	.	.
4D\	.	.	16d/LL	.	.	.	.	4r	.	.	.	.	.	.
.	.	.	16f#/	.	.	.	.	.	.	.	.	.	.	.
.	.	.	16d/	.	.	.	.	.	.	.	.	.	.	.
.	.	.	16f#/JJ	.	.	.	.	.	.	.	.	.	.	.
4r	.	.	16d/LL	.	.	.	.	4r	.	.	.	.	.	.
.	.	.	16f#/	.	.	.	.	.	.	.	.	.	.	.
.	.	.	16d/	.	.	.	.	.	.	.	.	.	.	.
.	.	.	16f#/JJ	.	.	.	.	.	.	.	.	.	.	.
!LO:LB:g=original	!	!	!	!	!	!	!	!	!	!	!	!	!	!
=54	=54	=54	=54	=54	=54	=54	=54	=54	=54	=54	=54	=54	=54	=54
*	*	*	*tremolo	*	*	*	*	*	*	*	*	*	*	*
4AA/	#	.	16c#X/LL	.	2.ryy	2.ryy	2.ryy	0.r	.	2.ryy	2.ryy	2.ryy	2.ryy	2.ryy
.	.	.	16e/	.	.	.	.	.	.	.	.	.	.	.
.	.	.	16c#/	.	.	.	.	.	.	.	.	.	.	.
.	.	.	16e/	.	.	.	.	.	.	.	.	.	.	.
4AA/	.	.	16c#/	.	.	.	.	.	.	.	.	.	.	.
.	.	.	16e/	.	.	.	.	.	.	.	.	.	.	.
.	.	.	16c#/	.	.	.	.	.	.	.	.	.	.	.
.	.	.	16e/	.	.	.	.	.	.	.	.	.	.	.
4r	.	.	16c#/	.	.	.	.	.	.	.	.	.	.	.
.	.	.	16e/	.	.	.	.	.	.	.	.	.	.	.
.	.	.	16c#/	.	.	.	.	.	.	.	.	.	.	.
.	.	.	16e/JJ	.	.	.	.	.	.	.	.	.	.	.
=55	=55	=55	=55	=55	=55	=55	=55	=55	=55	=55	=55	=55	=55	=55
4D\	.	.	16d/LL	.	2.ryy	2.ryy	2.ryy	.	.	2.ryy	2.ryy	2.ryy	2.ryy	2.ryy
.	.	.	16f#/	.	.	.	.	.	.	.	.	.	.	.
.	.	.	16d/	.	.	.	.	.	.	.	.	.	.	.
.	.	.	16f#/	.	.	.	.	.	.	.	.	.	.	.
4D\	.	.	16d/	.	.	.	.	.	.	.	.	.	.	.
.	.	.	16f#/	.	.	.	.	.	.	.	.	.	.	.
.	.	.	16d/	.	.	.	.	.	.	.	.	.	.	.
.	.	.	16f#/	.	.	.	.	.	.	.	.	.	.	.
4r	.	.	16d/	.	.	.	.	.	.	.	.	.	.	.
.	.	.	16f#/	.	.	.	.	.	.	.	.	.	.	.
.	.	.	16d/	.	.	.	.	.	.	.	.	.	.	.
.	.	.	16f#/JJ	.	.	.	.	.	.	.	.	.	.	.
=56	=56	=56	=56	=56	=56	=56	=56	=56	=56	=56	=56	=56	=56	=56
4AA/	#	.	16c#X/LL	.	2.ryy	2.ryy	2.ryy	.	.	2.ryy	2.ryy	2.ryy	2.ryy	2.ryy
.	.	.	16e/	.	.	.	.	.	.	.	.	.	.	.
.	.	.	16c#/	.	.	.	.	.	.	.	.	.	.	.
.	.	.	16e/	.	.	.	.	.	.	.	.	.	.	.
4AA/	.	.	16c#/	.	.	.	.	.	.	.	.	.	.	.
.	.	.	16e/	.	.	.	.	.	.	.	.	.	.	.
.	.	.	16c#/	.	.	.	.	.	.	.	.	.	.	.
.	.	.	16e/	.	.	.	.	.	.	.	.	.	.	.
4r	.	.	16c#/	.	.	.	.	.	.	.	.	.	.	.
.	.	.	16e/	.	.	.	.	.	.	.	.	.	.	.
.	.	.	16c#/	.	.	.	.	.	.	.	.	.	.	.
.	.	.	16e/JJ	.	.	.	.	.	.	.	.	.	.	.
*	*	*	*Xtremolo	*	*	*	*	*	*	*	*	*	*	*
=57	=57	=57	=57	=57	=57	=57	=57	=57	=57	=57	=57	=57	=57	=57
!	!	!LO:DY:a:t=for	!	!LO:DY:a:t=f&colon;	!	!	!	!	!	!	!	!	!	!
8D\L	.	f	8d/L	f	2.ryy	2.ryy	2.ryy	.	.	2.ryy	2.ryy	2.ryy	2.ryy	8ryy
8D\	.	.	16f#/L	.	.	.	.	.	.	.	.	.	.	8ryy
.	.	.	16a/JJ	.	.	.	.	.	.	.	.	.	.	.
8F#\	6_	.	16g/LL	.	.	.	.	.	.	.	.	.	.	2ryy
.	.	.	16f#/	.	.	.	.	.	.	.	.	.	.	.
8F#\	.	.	16e/	.	.	.	.	.	.	.	.	.	.	.
.	.	.	16d/JJ	.	.	.	.	.	.	.	.	.	.	.
8F#\	.	.	16c#X/LL	.	.	.	.	.	.	.	.	.	.	.
.	.	.	16d/	.	.	.	.	.	.	.	.	.	.	.
8F#\J	x	.	16c#/	.	.	.	.	.	.	.	.	.	.	.
.	.	.	16d/JJ	.	.	.	.	.	.	.	.	.	.	.
!	!	!	!LO:LB:g=original	!	!	!	!	!	!	!	!	!	!	!
=58	=58	=58	=58	=58	=58	=58	=58	=58	=58	=58	=58	=58	=58	=58
*tremolo	*	*	*	*	*	*	*	*	*	*	*	*	*	*
8G\L	6_	.	16d#X/LL	.	2.ryy	2.ryy	2.ryy	1.r	.	2.ryy	2.ryy	2.ryy	2.ryy	2.ryy
.	.	.	16e/	.	.	.	.	.	.	.	.	.	.	.
8G\	x	.	16d#/	.	.	.	.	.	.	.	.	.	.	.
.	.	.	16e/JJ	.	.	.	.	.	.	.	.	.	.	.
8G\	.	.	16d#/LL	.	.	.	.	.	.	.	.	.	.	.
.	.	.	16e/	.	.	.	.	.	.	.	.	.	.	.
8G\	.	.	16f#/	.	.	.	.	.	.	.	.	.	.	.
.	.	.	16g/JJ	.	.	.	.	.	.	.	.	.	.	.
8G\	.	.	16a/LL	.	.	.	.	.	.	.	.	.	.	.
.	.	.	16b/	.	.	.	.	.	.	.	.	.	.	.
8G\J	.	.	16g/	.	.	.	.	.	.	.	.	.	.	.
.	.	.	16e/JJ	.	.	.	.	.	.	.	.	.	.	.
*Xtremolo	*	*	*	*	*	*	*	*	*	*	*	*	*	*
=59	=59	=59	=59	=59	=59	=59	=59	=59	=59	=59	=59	=59	=59	=59
!LO:TX:t=P:problem=mixed beam	!	!	!	!	!	!	!	!	!	!	!	!	!	!
8F#\L	6	.	8d/L	.	2.ryy	2.ryy	2.ryy	.	.	2.ryy	2.ryy	2.ryy	2.ryy	2.ryy
8G\	6	.	8g/J	.	.	.	.	.	.	.	.	.	.	.
8A\	4	.	4f#/	.	.	.	.	.	.	.	.	.	.	.
8A\	.	.	.	.	.	.	.	.	.	.	.	.	.	.
8AA/	#	.	4e/	.	.	.	.	.	.	.	.	.	.	.
8AA/J	.	.	.	.	.	.	.	.	.	.	.	.	.	.
=60	=60	=60	=60	=60	=60	=60	=60	=60	=60	=60	=60	=60	=60	=60
4D\	.	.	8f#/L	.	2.ryy	2.ryy	2.ryy	2.r	.	2.ryy	2.ryy	2.ryy	2.ryy	2.ryy
.	.	.	8a/J	.	.	.	.	.	.	.	.	.	.	.
4D\	.	.	4f#/	.	.	.	.	.	.	.	.	.	.	.
4r	.	.	4r	.	.	.	.	.	.	.	.	.	.	.
=61	=61	=61	=61	=61	=61	=61	=61	=61	=61	=61	=61	=61	=61	=61
*tremolo	*	*	*tremolo	*	*	*	*	*	*	*	*	*	*	*
!	!	!LO:DY:a:t=p&colon;:rj	!	!LO:DY:a:t=p&colon;	!	!	!	!	!	!	!	!	!	!
8D\L	.	p	8f#/L	p	2.ryy	2.ryy	2.ryy	4.a\	E-	2.ryy	2.ryy	2.ryy	2.ryy	2.ryy
8D\	.	.	8f#/	.	.	.	.	.	.	.	.	.	.	.
8D\	.	.	8f#/	.	.	.	.	.	.	.	.	.	.	.
8D\	.	.	8f#/	.	.	.	.	16b\LL	.	.	.	.	.	.
.	.	.	.	.	.	.	.	16a\JJ	.	.	.	.	.	.
!	!	!	!	!	!	!	!	!LO:LB:g=original	!	!	!	!	!	!
=-	=-	=-	=-	=-	=-	=-	=-	=-	=-	=-	=-	=-	=-	=-
8D\	.	.	8f#/	.	.	.	.	16gyy\	-su-	.	.	.	.	.
.	.	.	.	.	.	.	.	16f#\	.	.	.	.	.	.
8D\J	.	.	8f#/J	.	.	.	.	16e\LL	-ri-	.	.	.	.	.
.	.	.	.	.	.	.	.	16d\JJ	.	.	.	.	.	.
*Xtremolo	*	*	*Xtremolo	*	*	*	*	*	*	*	*	*	*	*
=62	=62	=62	=62	=62	=62	=62	=62	=62	=62	=62	=62	=62	=62	=62
4AA/	#	.	8.cc#X\L	.	2.ryy	2.ryy	2.ryy	8.e\L	-en-	2.ryy	2.ryy	2.ryy	2.ryy	4ryy
.	.	.	32dd\LL	.	.	.	.	32f#\LL	.	.	.	.	.	.
.	.	.	32ee\JJJ	.	.	.	.	32g\JJJ	.	.	.	.	.	.
!	!	!	!LO:SIC:v:s=8dd\L	!	!	!	!	!	!	!	!	!	!	!
4D\	.	.	8cc#\L	.	.	.	.	4f#\	-tes	.	.	.	.	2ryy
.	.	.	8ff#\J	.	.	.	.	.	.	.	.	.	.	.
8r	.	.	16ee\LL	.	.	.	.	8r	.	.	.	.	.	.
.	.	.	16ff#\	.	.	.	.	.	.	.	.	.	.	.
8F#\	6	.	16ee\	.	.	.	.	8a\	im-	.	.	.	.	.
.	.	.	16ff#\JJ	.	.	.	.	.	.	.	.	.	.	.
!LO:LB:g=original	!	!	!	!	!	!	!	!	!	!	!	!	!	!
=63	=63	=63	=63	=63	=63	=63	=63	=63	=63	=63	=63	=63	=63	=63
!LO:TX:t=P:problem=mixed beam	!	!	!	!	!	!	!	!	!	!	!	!	!	!
8G\L	6	.	8gg\L	.	2.ryy	2.ryy	2.ryy	8b\L	-ple-	2.ryy	2.ryy	2.ryy	2.ryy	2.ryy
8G\	.	.	16ff#\L	.	.	.	.	16a\L	.	.	.	.	.	.
.	.	.	16ee\JJ	.	.	.	.	16g\JJ	.	.	.	.	.	.
8A\	4	.	4dd\	.	.	.	.	4f#\	.	.	.	.	.	.
8A\	.	.	.	.	.	.	.	.	.	.	.	.	.	.
8AA/	#	.	4cc#X\	.	.	.	.	4e\	-vit	.	.	.	.	.
8AA/J	.	.	.	.	.	.	.	.	.	.	.	.	.	.
=64	=64	=64	=64	=64	=64	=64	=64	=64	=64	=64	=64	=64	=64	=64
4D\	.	.	16dd\LL	.	2.ryy	2.ryy	2.ryy	16f#\LL	bo-	2.ryy	2.ryy	2.ryy	2.ryy	2.ryy
!	!	!	!LO:SIC:v:s=16cc#	!	!	!	!	!	!	!	!	!	!	!
.	.	.	16cc\	.	.	.	.	16e\	.	.	.	.	.	.
.	.	.	16dd\	.	.	.	.	16f#\	.	.	.	.	.	.
.	.	.	16ee\JJ	.	.	.	.	16g\JJ	.	.	.	.	.	.
!	!	!	!LO:LB:g=original	!	!	!	!	!	!	!	!	!	!	!
=-	=-	=-	=-	=-	=-	=-	=-	=-	=-	=-	=-	=-	=-	=-
4D\	.	.	8ff#\L	.	.	.	.	4a\	-nis	.	.	.	.	.
.	.	.	8ff#\J	.	.	.	.	.	.	.	.	.	.	.
8r	.	.	16ee\LL	.	.	.	.	8r	.	.	.	.	.	.
.	.	.	16ff#\	.	.	.	.	.	.	.	.	.	.	.
8F#\	6	.	16ee\	.	.	.	.	8a\	im-	.	.	.	.	.
.	.	.	16ff#\JJ	.	.	.	.	.	.	.	.	.	.	.
=65	=65	=65	=65	=65	=65	=65	=65	=65	=65	=65	=65	=65	=65	=65
!LO:TX:t=P:problem=mixed beam	!	!	!	!	!	!	!	!	!	!	!	!	!	!
8G\L	6	.	8gg\L	.	2.ryy	2.ryy	2.ryy	8b\L	-ple-	2.ryy	2.ryy	2.ryy	2.ryy	2.ryy
8G\	.	.	16ff#\L	.	.	.	.	16a\L	.	.	.	.	.	.
.	.	.	16ee\JJ	.	.	.	.	16g\JJ	.	.	.	.	.	.
8A\	4	.	4dd\	.	.	.	.	4f#\	.	.	.	.	.	.
8A\	.	.	.	.	.	.	.	.	.	.	.	.	.	.
8AA/	#	.	4cc#X\	.	.	.	.	4e\	-vit	.	.	.	.	.
8AA/J	.	.	.	.	.	.	.	.	.	.	.	.	.	.
!	!	!	!	!	!	!	!	!LO:LB:g=original	!	!	!	!	!	!
=66	=66	=66	=66	=66	=66	=66	=66	=66	=66	=66	=66	=66	=66	=66
4D\	.	.	16dd\LL	.	2.ryy	2.ryy	2.ryy	4f#\	bo-	2.ryy	2.ryy	2.ryy	2.ryy	2.ryy
!	!	!	!LO:SIC:v:s=16cc#	!	!	!	!	!	!	!	!	!	!	!
.	.	.	16cc\	.	.	.	.	.	.	.	.	.	.	.
.	.	.	16dd\	.	.	.	.	.	.	.	.	.	.	.
.	.	.	16ee\JJ	.	.	.	.	.	.	.	.	.	.	.
4D\	.	.	4dd\	.	.	.	.	4f#\	-nis	.	.	.	.	.
8r	.	.	8r	.	.	.	.	8r	.	.	.	.	.	.
8F#\	6	.	8dd\	.	.	.	.	8a\	(et)	.	.	.	.	.
=67	=67	=67	=67	=67	=67	=67	=67	=67	=67	=67	=67	=67	=67	=67
*	*	*	*2\right	*	*	*	*	*	*	*	*	*	*	*
*tremolo	*	*	*tremolo	*	*	*	*	*	*	*	*	*	*	*
8G\L	.	.	8dd\L	.	2.ryy	2.ryy	2.ryy	8.b\	di-	2.ryy	2.ryy	2.ryy	2.ryy	2.ryy
8G\	.	.	8dd\	.	.	.	.	.	.	.	.	.	.	.
.	.	.	.	.	.	.	.	16g\	-vi-	.	.	.	.	.
8G\	.	.	8dd\	.	.	.	.	4d\	-tes	.	.	.	.	.
8G\	.	.	8dd\	.	.	.	.	.	.	.	.	.	.	.
8G\	.	.	8dd\	.	.	.	.	8r	.	.	.	.	.	.
*	*	*	*	*	*	*	*	*	*ij	*	*	*	*	*
8G\J	.	.	8dd\J	.	.	.	.	8b\	et	.	.	.	.	.
=68	=68	=68	=68	=68	=68	=68	=68	=68	=68	=68	=68	=68	=68	=68
8F#\L	6	.	8dd\L	.	2.ryy	2.ryy	2.ryy	8.a\	di-	2.ryy	2.ryy	2.ryy	2.ryy	2.ryy
8F#\	.	.	8dd\	.	.	.	.	.	.	.	.	.	.	.
.	.	.	.	.	.	.	.	16f#\	-vi-	.	.	.	.	.
8F#\	.	.	8dd\	.	.	.	.	4d\	-tes	.	.	.	.	.
*	*	*	*	*	*	*	*	*	*Xij	*	*	*	*	*
8F#\	.	.	8dd\	.	.	.	.	.	.	.	.	.	.	.
8F#\	.	.	8dd\	.	.	.	.	8r	.	.	.	.	.	.
8F#\J	.	.	8dd\J	.	.	.	.	8a\	di-	.	.	.	.	.
*Xtremolo	*	*	*Xtremolo	*	*	*	*	*	*	*	*	*	*	*
=69	=69	=69	=69	=69	=69	=69	=69	=69	=69	=69	=69	=69	=69	=69
8E\L	6\ 3	.	8cc#X\L	.	2.ryy	2.ryy	2.ryy	16a\LL	-mis-	2.ryy	2.ryy	2.ryy	2.ryy	2.ryy
.	.	.	.	.	.	.	.	16g\	.	.	.	.	.	.
8E\	.	.	8cc#\	.	.	.	.	16f#\	.	.	.	.	.	.
.	.	.	.	.	.	.	.	16g\JJ	.	.	.	.	.	.
8C#X\	.	.	8ee\	.	.	.	.	4g\	-sit	.	.	.	.	.
8C#\	.	.	8ee\	.	.	.	.	.	.	.	.	.	.	.
8D\	.	.	8dd\	.	.	.	.	4f#\	in-	.	.	.	.	.
8D\J	.	.	8dd\J	.	.	.	.	.	.	.	.	.	.	.
=70	=70	=70	=70	=70	=70	=70	=70	=70	=70	=70	=70	=70	=70	=70
4A\	4	.	4dd\	.	2.ryy	2.ryy	2.ryy	4f#\	-a-	2.ryy	2.ryy	2.ryy	2.ryy	2.ryy
4AA/	#	.	4cc#X\	.	.	.	.	4e\	-nes	.	.	.	.	.
!	!	!	!	!	!	!	!	!LO:LB:g=original	!	!	!	!	!	!
=-	=-	=-	=-	=-	=-	=-	=-	=-	=-	=-	=-	=-	=-	=-
8r	.	.	8r	.	.	.	.	8ryy	.	.	.	.	.	.
8AA/	.	.	8cc#\	.	.	.	.	8e\	Suſ-	.	.	.	.	.
!LO:LB:g=original	!	!	!	!	!	!	!	!	!	!	!	!	!	!
=71	=71	=71	=71	=71	=71	=71	=71	=71	=71	=71	=71	=71	=71	=71
*	*	*	*tremolo	*	*	*	*	*	*	*	*	*	*	*
8D\L	.	.	8f#/L	.	2.ryy	2.ryy	2.ryy	8a\L	-ce-	2.ryy	2.ryy	2.ryy	2.ryy	2.ryy
8D\	.	.	8f#/	.	.	.	.	16f#\L	.	.	.	.	.	.
.	.	.	.	.	.	.	.	16g\JJ	.	.	.	.	.	.
8D\	6	.	8f#/	.	.	.	.	4b\	.	.	.	.	.	.
8D\	.	.	8f#/	.	.	.	.	.	.	.	.	.	.	.
8D#X\	5	.	8f#/	.	.	.	.	4a\	-pit	.	.	.	.	.
8D#\J	.	.	8f#/J	.	.	.	.	.	.	.	.	.	.	.
=72	=72	=72	=72	=72	=72	=72	=72	=72	=72	=72	=72	=72	=72	=72
*tremolo	*	*	*	*	*	*	*	*	*	*	*	*	*	*
8E\L	3	.	8b\L	.	2.ryy	2.ryy	2.ryy	16a\LL	Is-	2.ryy	2.ryy	2.ryy	2.ryy	2.ryy
.	.	.	.	.	.	.	.	16g\JJ	.	.	.	.	.	.
8E\	.	.	8b\	.	.	.	.	16f#\LL	-ra-	.	.	.	.	.
.	.	.	.	.	.	.	.	16g\JJ	.	.	.	.	.	.
8E\	.	.	8b\	.	.	.	.	4g\	-el	.	.	.	.	.
8E\	.	.	8b\	.	.	.	.	.	.	.	.	.	.	.
8E\	.	.	8b\	.	.	.	.	8r	.	.	.	.	.	.
8E\J	.	.	8b\J	.	.	.	.	8g\	pu-	.	.	.	.	.
*Xtremolo	*	*	*Xtremolo	*	*	*	*	*	*	*	*	*	*	*
!	!	!	!LO:LB:g=original	!	!	!	!	!	!	!	!	!	!	!
=73	=73	=73	=73	=73	=73	=73	=73	=73	=73	=73	=73	=73	=73	=73
8A\L	6_	.	8cc\L	.	2.ryy	2.ryy	2.ryy	16g\LL	.	2.ryy	2.ryy	2.ryy	2.ryy	2.ryy
.	.	.	.	.	.	.	.	16f#\	.	.	.	.	.	.
8A\	.	.	8cc\	.	.	.	.	16e\	.	.	.	.	.	.
.	.	.	.	.	.	.	.	16f#\JJ	.	.	.	.	.	.
8A\	.	.	8cc\	.	.	.	.	4f#\	-e-	.	.	.	.	.
8A\	.	.	8cc\	.	.	.	.	.	.	.	.	.	.	.
8A#X\	5	.	8cc#X\	.	.	.	.	4e\	-rum	.	.	.	.	.
8A#\J	.	.	8cc#\J	.	.	.	.	.	.	.	.	.	.	.
=74	=74	=74	=74	=74	=74	=74	=74	=74	=74	=74	=74	=74	=74	=74
!LO:TX:t=P:problem=mixed beam	!	!	!	!	!	!	!	!	!	!	!	!	!	!
8B\L	4	.	8g/L	.	2.ryy	2.ryy	2.ryy	8e\L	su-	2.ryy	2.ryy	2.ryy	2.ryy	2.ryy
8B\	.	.	16f#/L	.	.	.	.	16d#X\L	.	.	.	.	.	.
.	.	.	16g/JJ	.	.	.	.	16e\JJ	.	.	.	.	.	.
8BB/	#	.	4f#/	.	.	.	.	4d#\	-um	.	.	.	.	.
8BB/	.	.	.	.	.	.	.	.	.	.	.	.	.	.
8BB/	.	.	4r	.	.	.	.	8r	.	.	.	.	.	.
8BB/J	.	.	.	.	.	.	.	8B/	re-	.	.	.	.	.
!	!	!	!	!	!	!	!	!LO:LB:g=original	!	!	!	!	!	!
=75	=75	=75	=75	=75	=75	=75	=75	=75	=75	=75	=75	=75	=75	=75
8E\L	.	.	8g/L	.	2.ryy	2.ryy	2.ryy	16f#\yy	.	2.ryy	2.ryy	2.ryy	2.ryy	2.ryy
.	.	.	.	.	.	.	.	16g\	.	.	.	.	.	.
8E\	.	.	8g/	.	.	.	.	16f#\LL	-cor-	.	.	.	.	.
.	.	.	.	.	.	.	.	16g\JJ	.	.	.	.	.	.
8E\	.	.	8g/	.	.	.	.	16b\LL	-da-	.	.	.	.	.
.	.	.	.	.	.	.	.	16g\	.	.	.	.	.	.
8E\	.	.	8g/	.	.	.	.	16f#\	.	.	.	.	.	.
.	.	.	.	.	.	.	.	16g\JJ	.	.	.	.	.	.
8G#X\	6	.	8e/	.	.	.	.	8e\	.	.	.	.	.	.
8G#\J	.	.	8e/J	.	.	.	.	8r	.	.	.	.	.	.
=76	=76	=76	=76	=76	=76	=76	=76	=76	=76	=76	=76	=76	=76	=76
8A\L	.	.	8e/L	.	2.ryy	2.ryy	2.ryy	16e\LL	.	2.ryy	2.ryy	2.ryy	2.ryy	2.ryy
.	.	.	.	.	.	.	.	16a\	.	.	.	.	.	.
8A\	.	.	8e/	.	.	.	.	16g\	.	.	.	.	.	.
.	.	.	.	.	.	.	.	16a\JJ	.	.	.	.	.	.
8A\	.	.	8e/	.	.	.	.	16cc\LL	.	.	.	.	.	.
.	.	.	.	.	.	.	.	16a\	.	.	.	.	.	.
8A\	.	.	8e/	.	.	.	.	16g\	.	.	.	.	.	.
.	.	.	.	.	.	.	.	16a\JJ	.	.	.	.	.	.
8C#X\	6 5	.	8a/	.	.	.	.	16e\LL	.	.	.	.	.	.
.	.	.	.	.	.	.	.	16g\	.	.	.	.	.	.
8C#\J	.	.	8a/J	.	.	.	.	16a\	.	.	.	.	.	.
.	.	.	.	.	.	.	.	16g\JJ	.	.	.	.	.	.
=77	=77	=77	=77	=77	=77	=77	=77	=77	=77	=77	=77	=77	=77	=77
8D\L	.	.	8f#/L	.	2.ryy	2.ryy	2.ryy	8f#\L	.	2.ryy	2.ryy	2.ryy	2.ryy	2.ryy
8D\	.	.	8f#/	.	.	.	.	16e\L	.	.	.	.	.	.
.	.	.	.	.	.	.	.	16f#\JJ	.	.	.	.	.	.
8D\	.	.	8f#/	.	.	.	.	16a\LL	.	.	.	.	.	.
.	.	.	.	.	.	.	.	16f#\	.	.	.	.	.	.
8D\	.	.	8f#/	.	.	.	.	16e\	.	.	.	.	.	.
.	.	.	.	.	.	.	.	16f#\JJ	.	.	.	.	.	.
8F#\	6_	.	8d/	.	.	.	.	8d\	.	.	.	.	.	.
8F#\J	x	.	8d/J	.	.	.	.	8r	.	.	.	.	.	.
!LO:LB:g=original	!	!	!	!	!	!	!	!	!	!	!	!	!	!
=78	=78	=78	=78	=78	=78	=78	=78	=78	=78	=78	=78	=78	=78	=78
8G\L	.	.	8d/L	.	2.ryy	2.ryy	2.ryy	16d\LL	.	2.ryy	2.ryy	2.ryy	2.ryy	2.ryy
.	.	.	.	.	.	.	.	16g\	.	.	.	.	.	.
8G\	.	.	8d/	.	.	.	.	16f#\	.	.	.	.	.	.
.	.	.	.	.	.	.	.	16g\JJ	.	.	.	.	.	.
!	!	!	!	!	!	!	!	!LO:LB:g=original	!	!	!	!	!	!
=-	=-	=-	=-	=-	=-	=-	=-	=-	=-	=-	=-	=-	=-	=-
8G\	.	.	8d/	.	.	.	.	16a\yy	.	.	.	.	.	.
.	.	.	.	.	.	.	.	16g\LL	.	.	.	.	.	.
8G\	.	.	8d/	.	.	.	.	16f#\	.	.	.	.	.	.
.	.	.	.	.	.	.	.	16g\JJ	.	.	.	.	.	.
8B\	6 5nr	.	8g/	.	.	.	.	16d\LL	.	.	.	.	.	.
.	.	.	.	.	.	.	.	16fn\	.	.	.	.	.	.
8B\J	.	.	8g/J	.	.	.	.	16g\	.	.	.	.	.	.
.	.	.	.	.	.	.	.	16f\JJ	.	.	.	.	.	.
=79	=79	=79	=79	=79	=79	=79	=79	=79	=79	=79	=79	=79	=79	=79
*tremolo	*	*	*tremolo	*	*	*	*	*	*	*	*	*	*	*
8c\L	3	.	8a/L	.	2.ryy	2.ryy	2.ryy	16f#\LL	-tus	2.ryy	2.ryy	2.ryy	2.ryy	2.ryy
.	.	.	.	.	.	.	.	16e\JJ	.	.	.	.	.	.
8c\	6_	.	8a/	.	.	.	.	16d#X\LL	mi-	.	.	.	.	.
.	.	.	.	.	.	.	.	16e\JJ	.	.	.	.	.	.
8c\	x	.	8a/	.	.	.	.	4.a\	-ſe-	.	.	.	.	.
8c\	.	.	8a/	.	.	.	.	.	.	.	.	.	.	.
8c\	.	.	8a/	.	.	.	.	.	.	.	.	.	.	.
8c\J	.	.	8a/J	.	.	.	.	16cc\LL	-ri-	.	.	.	.	.
.	.	.	.	.	.	.	.	16a\JJ	.	.	.	.	.	.
=80	=80	=80	=80	=80	=80	=80	=80	=80	=80	=80	=80	=80	=80	=80
8B\L	6	.	8g/L	.	2.ryy	2.ryy	2.ryy	16a\LL	-cor-	2.ryy	2.ryy	2.ryy	2.ryy	2.ryy
.	.	.	.	.	.	.	.	16g\	.	.	.	.	.	.
8B\	.	.	8g/	.	.	.	.	16f#X\	.	.	.	.	.	.
.	.	.	.	.	.	.	.	16g\JJ	.	.	.	.	.	.
8B\	.	.	8g/	.	.	.	.	4.g\	.	.	.	.	.	.
8B\	.	.	8g/	.	.	.	.	.	.	.	.	.	.	.
8B\	.	.	8g/	.	.	.	.	.	.	.	.	.	.	.
8B\J	.	.	8g/J	.	.	.	.	8fn\	.	.	.	.	.	.
*Xtremolo	*	*	*Xtremolo	*	*	*	*	*	*	*	*	*	*	*
!	!	!	!LO:LB:g=original	!	!	!	!	!	!	!	!	!	!	!
=81	=81	=81	=81	=81	=81	=81	=81	=81	=81	=81	=81	=81	=81	=81
!LO:TX:t=P:problem=mixed beam	!	!	!	!	!	!	!	!	!	!	!	!	!	!
8c\L	6	.	4a/	.	2.ryy	2.ryy	2.ryy	8e\	-di-	2.ryy	2.ryy	2.ryy	2.ryy	2.ryy
8c\	.	.	.	.	.	.	.	16cc\LL	-ae	.	.	.	.	.
.	.	.	.	.	.	.	.	16a\JJ	.	.	.	.	.	.
8d\	4	.	4g/	.	.	.	.	4g\	.	.	.	.	.	.
8d\	.	.	.	.	.	.	.	.	.	.	.	.	.	.
8D/	3	.	4f#/	.	.	.	.	4f#X\	ſu-	.	.	.	.	.
8D/J	.	.	.	.	.	.	.	.	.	.	.	.	.	.
=82	=82	=82	=82	=82	=82	=82	=82	=82	=82	=82	=82	=82	=82	=82
*tremolo	*	*	*	*	*	*	*	*	*	*	*	*	*	*
8G\L	.	.	8g/L	.	2.ryy	2.ryy	2.ryy	4g\	-ae	2.ryy	2.ryy	2.ryy	2.ryy	2.r
8G\	.	.	8b/J	.	.	.	.	.	.	.	.	.	.	.
8G\	.	.	4g/	.	.	.	.	4r	.	.	.	.	.	.
8G\	.	.	.	.	.	.	.	.	.	.	.	.	.	.
8G\	.	.	8r	.	.	.	.	8r	.	.	.	.	.	.
8G\J	.	.	8b\	.	.	.	.	8b\	re-	.	.	.	.	.
!	!	!	!	!	!	!	!	!LO:LB:g=original	!	!	!	!	!	!
=83	=83	=83	=83	=83	=83	=83	=83	=83	=83	=83	=83	=83	=83	=83
*	*	*	*tremolo	*	*	*	*	*	*	*	*	*	*	*
8G\L	6 4	.	8cc\L	.	2.ryy	2.ryy	2.ryy	16f#\yy	.	2.ryy	2.ryy	2.ryy	2.ryy	2.ryy
.	.	.	.	.	.	.	.	16g\LL	.	.	.	.	.	.
8G\	.	.	8cc\	.	.	.	.	16a\	.	.	.	.	.	.
.	.	.	.	.	.	.	.	16b\JJ	.	.	.	.	.	.
8G\	.	.	8cc\	.	.	.	.	16cc\LL	.	.	.	.	.	.
.	.	.	.	.	.	.	.	16b\	.	.	.	.	.	.
8G\	.	.	8cc\	.	.	.	.	16cc\	.	.	.	.	.	.
.	.	.	.	.	.	.	.	16dd\JJ	.	.	.	.	.	.
8G\	.	.	8cc\	.	.	.	.	8ee\	.	.	.	.	.	.
8G\J	.	.	8cc\J	.	.	.	.	16dd\LL	-cor-	.	.	.	.	.
.	.	.	.	.	.	.	.	16cc\JJ	.	.	.	.	.	.
=84	=84	=84	=84	=84	=84	=84	=84	=84	=84	=84	=84	=84	=84	=84
8G\L	5 3	.	8b\L	.	2.ryy	2.ryy	2.ryy	8b\L	-da-	2.ryy	2.ryy	2.ryy	2.ryy	2.ryy
8G\	.	.	8b\	.	.	.	.	16g\L	.	.	.	.	.	.
.	.	.	.	.	.	.	.	16a\JJ	.	.	.	.	.	.
8G\	.	.	8b\	.	.	.	.	16b\LL	.	.	.	.	.	.
.	.	.	.	.	.	.	.	16a\	.	.	.	.	.	.
8G\	.	.	8b\	.	.	.	.	16b\	.	.	.	.	.	.
.	.	.	.	.	.	.	.	16cc\JJ	.	.	.	.	.	.
8G\	.	.	8b\	.	.	.	.	8dd\L	.	.	.	.	.	.
8G\J	.	.	8b\J	.	.	.	.	16cc\L	.	.	.	.	.	.
.	.	.	.	.	.	.	.	16b\JJ	.	.	.	.	.	.
=85	=85	=85	=85	=85	=85	=85	=85	=85	=85	=85	=85	=85	=85	=85
8F#\L	6 5	.	8a/L	.	2.ryy	2.ryy	2.ryy	16a\LL	.	2.ryy	2.ryy	2.ryy	2.ryy	2.r
.	.	.	.	.	.	.	.	16d\	.	.	.	.	.	.
8F#\	.	.	8a/	.	.	.	.	16e\	.	.	.	.	.	.
.	.	.	.	.	.	.	.	16f#\JJ	.	.	.	.	.	.
8F#\	.	.	8a/	.	.	.	.	16g\LL	.	.	.	.	.	.
.	.	.	.	.	.	.	.	16a\	.	.	.	.	.	.
8F#\	.	.	8a/	.	.	.	.	16b\	.	.	.	.	.	.
.	.	.	.	.	.	.	.	16cc\JJ	.	.	.	.	.	.
8F#\	.	.	8a/	.	.	.	.	16dd\LL	.	.	.	.	.	.
.	.	.	.	.	.	.	.	16cc\	.	.	.	.	.	.
8F#\J	.	.	8a/J	.	.	.	.	16b\	.	.	.	.	.	.
.	.	.	.	.	.	.	.	16a\JJ	.	.	.	.	.	.
*Xtremolo	*	*	*Xtremolo	*	*	*	*	*	*	*	*	*	*	*
=86	=86	=86	=86	=86	=86	=86	=86	=86	=86	=86	=86	=86	=86	=86
8G\L	.	.	8b/L	.	2.ryy	2.ryy	2.ryy	8b\L	.	2.ryy	2.ryy	2.ryy	2.ryy	2.r
8G\	.	.	8b/	.	.	.	.	16g\L	.	.	.	.	.	.
.	.	.	.	.	.	.	.	16a\JJ	.	.	.	.	.	.
!	!	!	!	!	!	!	!	!LO:LB:g=original	!	!	!	!	!	!
=-	=-	=-	=-	=-	=-	=-	=-	=-	=-	=-	=-	=-	=-	=-
8G\	.	.	8b/	.	.	.	.	16b\yy	.	.	.	.	.	.
.	.	.	.	.	.	.	.	16cc\LL	.	.	.	.	.	.
8G\	.	.	8b/	.	.	.	.	16dd\	.	.	.	.	.	.
.	.	.	.	.	.	.	.	16b\JJ	.	.	.	.	.	.
8B\	6	.	8g/	.	.	.	.	16a\LL	.	.	.	.	.	.
.	.	.	.	.	.	.	.	16g\	.	.	.	.	.	.
8B\J	.	.	8g/J	.	.	.	.	16f#\	.	.	.	.	.	.
.	.	.	.	.	.	.	.	16g\JJ	.	.	.	.	.	.
=87	=87	=87	=87	=87	=87	=87	=87	=87	=87	=87	=87	=87	=87	=87
*	*	*	*tremolo	*	*	*	*	*	*	*	*	*	*	*
8c\L	6_	.	8a/L	.	2.ryy	2.ryy	2.ryy	16g#X\LL	-tus	2.ryy	2.ryy	2.ryy	2.ryy	2.ryy
.	.	.	.	.	.	.	.	16a\JJ	.	.	.	.	.	.
8c\	.	.	8a/	.	.	.	.	16g#\LL	mi-	.	.	.	.	.
.	.	.	.	.	.	.	.	16a\JJ	.	.	.	.	.	.
8c\	.	.	8a/	.	.	.	.	4.a\	-ſe-	.	.	.	.	.
8c\	.	.	8a/	.	.	.	.	.	.	.	.	.	.	.
8d\	3_	.	8a/	.	.	.	.	.	.	.	.	.	.	.
8d\J	x	.	8a/J	.	.	.	.	16b\LL	-ri-	.	.	.	.	.
.	.	.	.	.	.	.	.	16cc\JJ	.	.	.	.	.	.
*	*	*	*Xtremolo	*	*	*	*	*	*	*	*	*	*	*
!LO:LB:g=original	!	!	!	!	!	!	!	!	!	!	!	!	!	!
=88	=88	=88	=88	=88	=88	=88	=88	=88	=88	=88	=88	=88	=88	=88
8e\L	.	.	8b\L	.	2.ryy	2.ryy	2.ryy	8b\L	-cor-	2.ryy	2.ryy	2.ryy	2.ryy	2.ryy
8d\	.	.	8b\	.	.	.	.	16a\L	.	.	.	.	.	.
.	.	.	.	.	.	.	.	16b\JJ	.	.	.	.	.	.
8c\	6	.	8ee\	.	.	.	.	4cc\	-di-	.	.	.	.	.
8c\	.	.	8ee\	.	.	.	.	.	.	.	.	.	.	.
8c#X\	5	.	8ee\	.	.	.	.	4b\	-ae	.	.	.	.	.
8c#\J	.	.	8ee\J	.	.	.	.	.	.	.	.	.	.	.
=89	=89	=89	=89	=89	=89	=89	=89	=89	=89	=89	=89	=89	=89	=89
4d\	4	.	8b/L	.	2.ryy	2.ryy	2.ryy	4b\	ſu-	2.ryy	2.ryy	2.ryy	2.ryy	2.ryy
.	.	.	16a/L	.	.	.	.	.	.	.	.	.	.	.
.	.	.	16b/JJ	.	.	.	.	.	.	.	.	.	.	.
4D\	3	.	4a/	.	.	.	.	4a\	-ae	.	.	.	.	.
4r	.	.	4r	.	.	.	.	8r	.	.	.	.	.	.
.	.	.	.	.	.	.	.	8a\	ſi-	.	.	.	.	.
!	!	!	!LO:LB:g=original	!	!	!	!	!	!	!	!	!	!	!
=90	=90	=90	=90	=90	=90	=90	=90	=90	=90	=90	=90	=90	=90	=90
8G\	.	.	8r	.	2.ryy	2.ryy	2.ryy	4.b\	.	2.ryy	2.ryy	2.ryy	2.ryy	2.ryy
8r	.	.	8g/	.	.	.	.	.	.	.	.	.	.	.
8G\	.	.	8r	.	.	.	.	.	.	.	.	.	.	.
8r	.	.	8g/	.	.	.	.	16cc\LL	-cut	.	.	.	.	.
.	.	.	.	.	.	.	.	16dd\JJ	.	.	.	.	.	.
!	!	!	!	!	!	!	!	!LO:LB:g=original	!	!	!	!	!	!
=-	=-	=-	=-	=-	=-	=-	=-	=-	=-	=-	=-	=-	=-	=-
8G\	.	.	8r	.	.	.	.	16ee\yy	lo-	.	.	.	.	.
.	.	.	.	.	.	.	.	16dd\	.	.	.	.	.	.
8r	.	.	8g/	.	.	.	.	16cc\LL	.	.	.	.	.	.
.	.	.	.	.	.	.	.	16b\JJ	.	.	.	.	.	.
=91	=91	=91	=91	=91	=91	=91	=91	=91	=91	=91	=91	=91	=91	=91
8D\	.	.	8r	.	2.ryy	2.ryy	2.ryy	8b\	-cu-	2.ryy	2.ryy	2.ryy	2.ryy	2.ryy
8r	.	.	8f#/	.	.	.	.	8a\	-tus	.	.	.	.	.
8D\	.	.	8r	.	.	.	.	4a\	eſt	.	.	.	.	.
8r	.	.	8f#/	.	.	.	.	.	.	.	.	.	.	.
8D\	.	.	8r	.	.	.	.	8r	.	.	.	.	.	.
8r	.	.	8f#/	.	.	.	.	8a\	ad	.	.	.	.	.
=92	=92	=92	=92	=92	=92	=92	=92	=92	=92	=92	=92	=92	=92	=92
8G\	.	.	8r	.	2.ryy	2.ryy	2.ryy	4.b\	pat-	2.ryy	2.ryy	2.ryy	2.ryy	2.ryy
8r	.	.	8g/	.	.	.	.	.	.	.	.	.	.	.
8G\	.	.	8r	.	.	.	.	.	.	.	.	.	.	.
8r	.	.	8g/	.	.	.	.	16cc\LL	.	.	.	.	.	.
.	.	.	.	.	.	.	.	16dd\JJ	.	.	.	.	.	.
8G\	.	.	8r	.	.	.	.	16ee\LL	.	.	.	.	.	.
.	.	.	.	.	.	.	.	16dd\JJ	.	.	.	.	.	.
8r	.	.	8g/	.	.	.	.	16cc\LL	-res	.	.	.	.	.
.	.	.	.	.	.	.	.	16b\JJ	.	.	.	.	.	.
=93	=93	=93	=93	=93	=93	=93	=93	=93	=93	=93	=93	=93	=93	=93
8D\	.	.	8r	.	2.ryy	2.ryy	2.ryy	8b\L	noſ-	2.ryy	2.ryy	2.ryy	2.ryy	2.ryy
8r	.	.	8f#/	.	.	.	.	8a\J	.	.	.	.	.	.
8D\	.	.	8r	.	.	.	.	4a\	-tros	.	.	.	.	.
8r	.	.	8f#/	.	.	.	.	.	.	.	.	.	.	.
8D\	.	.	8r	.	.	.	.	8r	.	.	.	.	.	.
8r	.	.	8f#/	.	.	.	.	8a\	ad	.	.	.	.	.
!LO:LB:g=original	!	!	!	!	!	!	!	!	!	!	!	!	!	!
=94	=94	=94	=94	=94	=94	=94	=94	=94	=94	=94	=94	=94	=94	=94
8F#\	6_ 5_	.	8r	.	2.ryy	2.ryy	2.ryy	4.cc\	pat-	2.ryy	2.ryy	2.ryy	2.ryy	2.ryy
8r	.	.	8d/	.	.	.	.	.	.	.	.	.	.	.
8F#\	.	.	8r	.	.	.	.	.	.	.	.	.	.	.
8r	.	.	8d/	.	.	.	.	16dd\LL	.	.	.	.	.	.
.	.	.	.	.	.	.	.	16cc\JJ	.	.	.	.	.	.
!	!	!	!	!	!	!	!	!LO:LB:g=original	!	!	!	!	!	!
=-	=-	=-	=-	=-	=-	=-	=-	=-	=-	=-	=-	=-	=-	=-
8F#\	x x	.	8r	.	.	.	.	16g\yy	.	.	.	.	.	.
.	.	.	.	.	.	.	.	16a\LL	.	.	.	.	.	.
8r	.	.	8d/	.	.	.	.	16b\	.	.	.	.	.	.
.	.	.	.	.	.	.	.	16cc\JJ	.	.	.	.	.	.
=95	=95	=95	=95	=95	=95	=95	=95	=95	=95	=95	=95	=95	=95	=95
8G\	.	.	8r	.	2.ryy	2.ryy	2.ryy	4.dd\	.	2.ryy	2.ryy	2.ryy	2.ryy	2.ryy
8r	.	.	8d/	.	.	.	.	.	.	.	.	.	.	.
8G\	.	.	8r	.	.	.	.	.	.	.	.	.	.	.
8r	.	.	8d/	.	.	.	.	16ee\LL	.	.	.	.	.	.
.	.	.	.	.	.	.	.	16dd\JJ	.	.	.	.	.	.
8G\	.	.	8r	.	.	.	.	16cc\LL	.	.	.	.	.	.
.	.	.	.	.	.	.	.	16b\	.	.	.	.	.	.
8r	.	.	8d/	.	.	.	.	16a\	.	.	.	.	.	.
.	.	.	.	.	.	.	.	16b\JJ	.	.	.	.	.	.
=96	=96	=96	=96	=96	=96	=96	=96	=96	=96	=96	=96	=96	=96	=96
8c\	6_	.	8r	.	2.ryy	2.ryy	2.ryy	16cc\LL	.	2.ryy	2.ryy	2.ryy	2.ryy	2.ryy
.	.	.	.	.	.	.	.	16b\JJ	.	.	.	.	.	.
8r	.	.	8e/	.	.	.	.	16cc\LL	-res	.	.	.	.	.
.	.	.	.	.	.	.	.	16dd\JJ	.	.	.	.	.	.
!	!	!	!LO:LB:g=original	!	!	!	!	!	!	!	!	!	!	!
=-	=-	=-	=-	=-	=-	=-	=-	=-	=-	=-	=-	=-	=-	=-
8c\	.	.	8r	.	.	.	.	4cc\	noſ-	.	.	.	.	.
8r	.	.	8a/	.	.	.	.	.	.	.	.	.	.	.
8c#X\	5	.	8r	.	.	.	.	4b\	-tros	.	.	.	.	.
8r	.	.	8g/	.	.	.	.	.	.	.	.	.	.	.
=97	=97	=97	=97	=97	=97	=97	=97	=97	=97	=97	=97	=97	=97	=97
4d\	4	.	4g/	.	2.ryy	2.ryy	2.ryy	8b\	Ab-	2.ryy	2.ryy	2.ryy	2.ryy	2.ryy
.	.	.	.	.	.	.	.	16a\LL	-ra-	.	.	.	.	.
.	.	.	.	.	.	.	.	16b\JJ	.	.	.	.	.	.
4D;>\	3	.	4f#;>/	.	.	.	.	4a;\	-ham	.	.	.	.	.
4r	.	.	4r	.	.	.	.	8r	.	.	.	.	.	.
.	.	.	.	.	.	.	.	8a\	(et)	.	.	.	.	.
!	!	!	!	!	!	!	!	!LO:PB:g=original	!	!	!	!	!	!
=98	=98	=98	=98	=98	=98	=98	=98	=98	=98	=98	=98	=98	=98	=98
*tremolo	*	*	*tremolo	*	*	*	*	*	*	*	*	*	*	*
8G\L	.	.	8b/L	.	2.ryy	2.ryy	2.ryy	8b\L	Se-	2.ryy	2.ryy	2.ryy	2.ryy	2.ryy
8G\	.	.	8b/	.	.	.	.	16g\L	.	.	.	.	.	.
.	.	.	.	.	.	.	.	16a\JJ	.	.	.	.	.	.
8G\	.	.	8b/	.	.	.	.	16b\LL	.	.	.	.	.	.
.	.	.	.	.	.	.	.	16a\	.	.	.	.	.	.
8G\	.	.	8b/	.	.	.	.	16b\	.	.	.	.	.	.
.	.	.	.	.	.	.	.	16cc\JJ	.	.	.	.	.	.
8G\	.	.	8b/	.	.	.	.	8dd\	-mi-	.	.	.	.	.
8G\J	.	.	8b/J	.	.	.	.	16cc\LL	-ni	.	.	.	.	.
.	.	.	.	.	.	.	.	16b\JJ	.	.	.	.	.	.
=99	=99	=99	=99	=99	=99	=99	=99	=99	=99	=99	=99	=99	=99	=99
8F#\L	6 5	.	8a/L	.	2.ryy	2.ryy	2.ryy	16a\LL	e-	2.ryy	2.ryy	2.ryy	2.ryy	2.ryy
.	.	.	.	.	.	.	.	16d\	.	.	.	.	.	.
8F#\	.	.	8a/	.	.	.	.	16e\	.	.	.	.	.	.
.	.	.	.	.	.	.	.	16f#\JJ	.	.	.	.	.	.
8F#\	.	.	8a/	.	.	.	.	16g\LL	.	.	.	.	.	.
.	.	.	.	.	.	.	.	16a\	.	.	.	.	.	.
8F#\	.	.	8a/	.	.	.	.	16b\	.	.	.	.	.	.
.	.	.	.	.	.	.	.	16cc\JJ	.	.	.	.	.	.
8F#\	.	.	8a/	.	.	.	.	16dd\LL	.	.	.	.	.	.
.	.	.	.	.	.	.	.	16cc\	.	.	.	.	.	.
8F#\J	.	.	8a/J	.	.	.	.	16b\	.	.	.	.	.	.
.	.	.	.	.	.	.	.	16a\JJ	.	.	.	.	.	.
*Xtremolo	*	*	*Xtremolo	*	*	*	*	*	*	*	*	*	*	*
=100	=100	=100	=100	=100	=100	=100	=100	=100	=100	=100	=100	=100	=100	=100
8G\L	.	.	8b/L	.	2.ryy	2.ryy	2.ryy	8b\L	.	2.ryy	2.ryy	2.ryy	2.ryy	2.ryy
8G\	.	.	8b/	.	.	.	.	16g\L	.	.	.	.	.	.
.	.	.	.	.	.	.	.	16a\JJ	.	.	.	.	.	.
8G\	.	.	8b/	.	.	.	.	16b\LL	.	.	.	.	.	.
.	.	.	.	.	.	.	.	16cc\	.	.	.	.	.	.
8G\	.	.	8b/	.	.	.	.	16dd\	.	.	.	.	.	.
.	.	.	.	.	.	.	.	16b\JJ	.	.	.	.	.	.
8B\	6_	.	8g/	.	.	.	.	16a\LL	.	.	.	.	.	.
.	.	.	.	.	.	.	.	16g\	.	.	.	.	.	.
8B\J	x	.	8g/J	.	.	.	.	16f#\	.	.	.	.	.	.
.	.	.	.	.	.	.	.	16g\JJ	.	.	.	.	.	.
!LO:LB:g=original	!	!	!	!	!	!	!	!LO:LB:g=original	!	!	!	!	!	!
=101	=101	=101	=101	=101	=101	=101	=101	=101	=101	=101	=101	=101	=101	=101
*	*	*	*tremolo	*	*	*	*	*	*	*	*	*	*	*
8c\L	6_	.	8a/L	.	2.ryy	2.ryy	2.ryy	16g\LL	.	2.ryy	2.ryy	2.ryy	2.ryy	2.ryy
.	.	.	.	.	.	.	.	16a\	.	.	.	.	.	.
8c\	.	.	8a/	.	.	.	.	16g\	.	.	.	.	.	.
.	.	.	.	.	.	.	.	16a\JJ	.	.	.	.	.	.
8c\	.	.	8a/	.	.	.	.	4.a\	.	.	.	.	.	.
8c\	.	.	8a/	.	.	.	.	.	.	.	.	.	.	.
!LO:TX:t=P:problem=nieczytelne cyfrowanie	!	!	!	!	!	!	!	!	!	!	!	!	!	!
8d\	7_	.	8a/	.	.	.	.	.	.	.	.	.	.	.
8d\J	x	.	8a/J	.	.	.	.	16b\LL	.	.	.	.	.	.
.	.	.	.	.	.	.	.	16cc\JJ	.	.	.	.	.	.
*	*	*	*Xtremolo	*	*	*	*	*	*	*	*	*	*	*
=102	=102	=102	=102	=102	=102	=102	=102	=102	=102	=102	=102	=102	=102	=102
8e\L	.	.	8b/L	.	2.ryy	2.ryy	2.ryy	16b\LL	-jus	2.ryy	2.ryy	2.ryy	2.ryy	8ryy
.	.	.	.	.	.	.	.	16g\JJ	.	.	.	.	.	.
8c\	6	.	8a/J	.	.	.	.	16cc\LL	in	.	.	.	.	8ryy
.	.	.	.	.	.	.	.	16a\JJ	.	.	.	.	.	.
8d\	4	.	4g/	.	.	.	.	4g\	Sae-	.	.	.	.	2ryy
8d\	.	.	.	.	.	.	.	.	.	.	.	.	.	.
8D\	3	.	4f#/	.	.	.	.	4f#\	-cu-	.	.	.	.	.
8D\J	.	.	.	.	.	.	.	.	.	.	.	.	.	.
=103	=103	=103	=103	=103	=103	=103	=103	=103	=103	=103	=103	=103	=103	=103
4G\	.	.	16B/LL	.	2.ryy	2.ryy	2.ryy	4g\	-la	2.ryy	2.ryy	2.ryy	2.ryy	2.ryy
.	.	.	16d/	.	.	.	.	.	.	.	.	.	.	.
.	.	.	16B/	.	.	.	.	.	.	.	.	.	.	.
.	.	.	16d/JJ	.	.	.	.	.	.	.	.	.	.	.
*	*	*	*tremolo	*	*	*	*	*	*	*	*	*	*	*
4G\	.	.	16B/LL	.	.	.	.	4r	.	.	.	.	.	.
.	.	.	16d/	.	.	.	.	.	.	.	.	.	.	.
.	.	.	16B/	.	.	.	.	.	.	.	.	.	.	.
.	.	.	16d/	.	.	.	.	.	.	.	.	.	.	.
4r	.	.	16B/	.	.	.	.	4r	.	.	.	.	.	.
.	.	.	16d/	.	.	.	.	.	.	.	.	.	.	.
.	.	.	16B/	.	.	.	.	.	.	.	.	.	.	.
.	.	.	16d/JJ	.	.	.	.	.	.	.	.	.	.	.
=104	=104	=104	=104	=104	=104	=104	=104	=104	=104	=104	=104	=104	=104	=104
4D\	.	.	16A/LL	.	2.ryy	2.ryy	2.ryy	0.r	.	2.ryy	2.ryy	2.ryy	2.ryy	2.ryy
.	.	.	16d/	.	.	.	.	.	.	.	.	.	.	.
.	.	.	16A/	.	.	.	.	.	.	.	.	.	.	.
.	.	.	16d/	.	.	.	.	.	.	.	.	.	.	.
4D\	.	.	16A/	.	.	.	.	.	.	.	.	.	.	.
.	.	.	16d/	.	.	.	.	.	.	.	.	.	.	.
.	.	.	16A/	.	.	.	.	.	.	.	.	.	.	.
.	.	.	16d/	.	.	.	.	.	.	.	.	.	.	.
4r	.	.	16A/	.	.	.	.	.	.	.	.	.	.	.
.	.	.	16d/	.	.	.	.	.	.	.	.	.	.	.
.	.	.	16A/	.	.	.	.	.	.	.	.	.	.	.
.	.	.	16d/JJ	.	.	.	.	.	.	.	.	.	.	.
=105	=105	=105	=105	=105	=105	=105	=105	=105	=105	=105	=105	=105	=105	=105
4G\	.	.	16B/LL	.	2.ryy	2.ryy	2.ryy	.	.	2.ryy	2.ryy	2.ryy	2.ryy	2.ryy
.	.	.	16d/	.	.	.	.	.	.	.	.	.	.	.
.	.	.	16B/	.	.	.	.	.	.	.	.	.	.	.
.	.	.	16d/	.	.	.	.	.	.	.	.	.	.	.
4G\	.	.	16B/	.	.	.	.	.	.	.	.	.	.	.
.	.	.	16d/	.	.	.	.	.	.	.	.	.	.	.
.	.	.	16B/	.	.	.	.	.	.	.	.	.	.	.
.	.	.	16d/	.	.	.	.	.	.	.	.	.	.	.
4r	.	.	16B/	.	.	.	.	.	.	.	.	.	.	.
.	.	.	16d/	.	.	.	.	.	.	.	.	.	.	.
.	.	.	16B/	.	.	.	.	.	.	.	.	.	.	.
.	.	.	16d/JJ	.	.	.	.	.	.	.	.	.	.	.
!	!	!	!LO:LB:g=original	!	!	!	!	!	!	!	!	!	!	!
=106	=106	=106	=106	=106	=106	=106	=106	=106	=106	=106	=106	=106	=106	=106
4D\	.	.	16A/LL	.	2.ryy	2.ryy	2.ryy	.	.	2.ryy	2.ryy	2.ryy	2.ryy	2.ryy
.	.	.	16d/	.	.	.	.	.	.	.	.	.	.	.
.	.	.	16A/	.	.	.	.	.	.	.	.	.	.	.
.	.	.	16d/	.	.	.	.	.	.	.	.	.	.	.
4D\	.	.	16A/	.	.	.	.	.	.	.	.	.	.	.
.	.	.	16d/	.	.	.	.	.	.	.	.	.	.	.
.	.	.	16A/	.	.	.	.	.	.	.	.	.	.	.
.	.	.	16d/	.	.	.	.	.	.	.	.	.	.	.
4r	.	.	16A/	.	.	.	.	.	.	.	.	.	.	.
.	.	.	16d/	.	.	.	.	.	.	.	.	.	.	.
.	.	.	16A/	.	.	.	.	.	.	.	.	.	.	.
.	.	.	16d/JJ	.	.	.	.	.	.	.	.	.	.	.
*	*	*	*Xtremolo	*	*	*	*	*	*	*	*	*	*	*
=107	=107	=107	=107	=107	=107	=107	=107	=107	=107	=107	=107	=107	=107	=107
!	!	!LO:DY:a:rj	!	!LO:DY:a:t=f&colon;	!	!	!	!	!	!	!	!	!	!
8G\L	.	f	8B/L	f	2.ryy	2.ryy	2.ryy	.	.	2.ryy	2.ryy	2.ryy	2.ryy	2.ryy
8G\	.	.	16g/L	.	.	.	.	.	.	.	.	.	.	.
.	.	.	16a/JJ	.	.	.	.	.	.	.	.	.	.	.
8B\	6_	.	8g/L	.	.	.	.	.	.	.	.	.	.	.
8B\	.	.	8f#/J	.	.	.	.	.	.	.	.	.	.	.
8B\	.	.	16g/LL	.	.	.	.	.	.	.	.	.	.	.
.	.	.	16f#/	.	.	.	.	.	.	.	.	.	.	.
8B\J	x	.	16e/	.	.	.	.	.	.	.	.	.	.	.
.	.	.	16d/JJ	.	.	.	.	.	.	.	.	.	.	.
=108	=108	=108	=108	=108	=108	=108	=108	=108	=108	=108	=108	=108	=108	=108
8c\L	.	.	8e/L	.	2.ryy	2.ryy	2.ryy	1.r	.	2.ryy	2.ryy	2.ryy	2.ryy	2.ryy
8c\	.	.	16e/L	.	.	.	.	.	.	.	.	.	.	.
.	.	.	16d/JJ	.	.	.	.	.	.	.	.	.	.	.
8c\	.	.	8e/L	.	.	.	.	.	.	.	.	.	.	.
8c\	.	.	8e/J	.	.	.	.	.	.	.	.	.	.	.
8c\	.	.	16e/LL	.	.	.	.	.	.	.	.	.	.	.
.	.	.	16f#/	.	.	.	.	.	.	.	.	.	.	.
8c\J	.	.	16g/	.	.	.	.	.	.	.	.	.	.	.
.	.	.	16e/JJ	.	.	.	.	.	.	.	.	.	.	.
*Xtremolo	*	*	*	*	*	*	*	*	*	*	*	*	*	*
!LO:LB:g=original	!	!	!	!	!	!	!	!	!	!	!	!	!	!
=109	=109	=109	=109	=109	=109	=109	=109	=109	=109	=109	=109	=109	=109	=109
8B\L	6	.	8d/L	.	2.ryy	2.ryy	2.ryy	.	.	2.ryy	2.ryy	2.ryy	2.ryy	2.ryy
8c\	6	.	8a/J	.	.	.	.	.	.	.	.	.	.	.
8d\	4	.	4g/	.	.	.	.	.	.	.	.	.	.	.
8d\	.	.	.	.	.	.	.	.	.	.	.	.	.	.
8D\	3	.	4f#/	.	.	.	.	.	.	.	.	.	.	.
8D\J	.	.	.	.	.	.	.	.	.	.	.	.	.	.
=110	=110	=110	=110	=110	=110	=110	=110	=110	=110	=110	=110	=110	=110	=110
4G\	.	.	8g/L	.	2.ryy	2.ryy	2.ryy	2.r	.	2.ryy	2.ryy	2.ryy	2.ryy	2.ryy
.	.	.	8b/J	.	.	.	.	.	.	.	.	.	.	.
4GG/	.	.	4g/	.	.	.	.	.	.	.	.	.	.	.
4r	.	.	4r	.	.	.	.	.	.	.	.	.	.	.
==	==	==	==	==	==	==	==	==	==	==	==	==	==	==
*-	*-	*-	*-	*-	*-	*-	*-	*-	*-	*-	*-	*-	*-	*-
!!!system-decoration: [(s1,s2)][(s3,s4)][(s5,s6,s7,s8)][(s9,s10)](s11)
!!!AIN: 1 alto 1 bass 2 cor 2 flt 1 organ 1 soprn 1 tenor 2 violn
!!!ENC: Andrzej Gręziak
!!!END: 2020-07-19
!!!RDF**kern: < = below
!!!RDF**kern: > = above
!!!RDF**kern: | = vertical stroke
!!!ENC: Marta Chmielewska
!!!END: 2022-01-17
